%
(Header)
(Generated by gcodetools from Inkscape.)
(Using default header. To add your own header create file "header" in the output dir.)
M3
(Header end.)
G21 (All units in mm)

(Start cutting path id: path15313)
(Change tool to Cylindrical cutter)

G00 Z5.000000
G00 X71.469219 Y180.882292

G01 Z-0.125000 F1000.0(Penetrate)
G01 X72.110665 Y181.951373 Z-0.125000 F1000.000000
G01 X73.108470 Y182.806633 Z-0.125000
G01 X74.391365 Y183.305537 Z-0.125000
G01 X76.101892 Y183.519354 Z-0.125000
G00 Z5.000000

(End cutting path id: path15313)


(Start cutting path id: path15262)
(Change tool to Cylindrical cutter)

G00 Z5.000000
G00 X60.010918 Y184.902173

G01 Z-0.125000 F1000.0(Penetrate)
G01 X65.783940 Y182.336386 Z-0.125000 F1000.000000
G01 X68.848631 Y182.977832 Z-0.125000
G00 Z5.000000

(End cutting path id: path15262)


(Start cutting path id: path15260)
(Change tool to Cylindrical cutter)

G00 Z5.000000
G00 X71.129345 Y180.602935

G01 Z-0.125000 F1000.0(Penetrate)
G01 X71.984608 Y174.259739 Z-0.125000 F1000.000000
G01 X70.274082 Y172.264126 Z-0.125000
G00 Z5.000000

(End cutting path id: path15260)


(Start cutting path id: path14490)
(Change tool to Cylindrical cutter)

G00 Z5.000000
G00 X65.071236 Y173.333206

G01 Z-0.125000 F1000.0(Penetrate)
G01 X62.790536 Y166.348562 Z-0.125000 F1000.000000
G00 Z5.000000

(End cutting path id: path14490)


(Start cutting path id: rect5217)
(Change tool to Cylindrical cutter)

G00 Z5.000000
G00 X41.319741 Y204.753246

G01 Z-0.125000 F1000.0(Penetrate)
G01 X72.677492 Y204.753246 Z-0.125000 F1000.000000
G02 X78.171407 Y202.477592 Z-0.125000 I-0.000000 J-7.769569
G02 X80.447061 Y196.983677 Z-0.125000 I-5.493915 J-5.493915
G01 X80.447061 Y141.393485 Z-0.125000
G02 X78.171407 Y135.899572 Z-0.125000 I-7.769565 J0.000000
G02 X72.677492 Y133.623919 Z-0.125000 I-5.493915 J5.493918
G01 X41.319741 Y133.623919 Z-0.125000
G02 X35.825826 Y135.899572 Z-0.125000 I-0.000000 J7.769571
G02 X33.550172 Y141.393485 Z-0.125000 I5.493910 J5.493913
G01 X33.550172 Y196.983677 Z-0.125000
G02 X35.825826 Y202.477592 Z-0.125000 I7.769569 J-0.000000
G02 X41.319741 Y204.753246 Z-0.125000 I5.493915 J-5.493915
G01 X41.319741 Y204.753246 Z-0.125000
G00 Z5.000000

(End cutting path id: rect5217)


(Start cutting path id: path3584)
(Change tool to Cylindrical cutter)

G00 Z5.000000
G00 X69.366130 Y171.850933

G01 Z-0.125000 F1000.0(Penetrate)
G03 X68.647957 Y172.274992 Z-0.125000 I-1.895465 J-2.389934 F1000.000000
G03 X68.011464 Y172.274266 Z-0.125000 I-0.317382 J-0.758615
G00 Z5.000000

(End cutting path id: path3584)


(Start cutting path id: path3580)
(Change tool to Cylindrical cutter)

G00 Z5.000000
G00 X55.170353 Y191.973377

G01 Z-0.125000 F1000.0(Penetrate)
G03 X55.400092 Y188.409060 Z-0.125000 I5.110561 J-1.460160 F1000.000000
G02 X55.452575 Y187.542489 Z-0.125000 I-1.173616 J-0.505954
G02 X55.218519 Y187.468942 Z-0.125000 I-0.141677 J0.041670
G03 X53.762769 Y188.625516 Z-0.125000 I-130.328460 J-162.546598
G03 X52.305505 Y189.685315 Z-0.125000 I-14.620875 J-18.572462
G03 X51.840130 Y189.602711 Z-0.125000 I-0.189779 J-0.283038
G03 X51.234241 Y186.744320 Z-0.125000 I2.663196 J-2.057924
G03 X52.686797 Y185.284711 Z-0.125000 I1.935969 J0.474040
G00 Z5.000000

(End cutting path id: path3580)


(Start cutting path id: path3578)
(Change tool to Cylindrical cutter)

G00 Z5.000000
G00 X61.661464 Y190.138933

G01 Z-0.125000 F1000.0(Penetrate)
G03 X62.397631 Y191.150583 Z-0.125000 I-0.976480 J1.484249 F1000.000000
G03 X62.592797 Y193.045822 Z-0.125000 I-5.536635 J1.527816
G00 Z5.000000

(End cutting path id: path3578)


(Start cutting path id: path3576)
(Change tool to Cylindrical cutter)

G00 Z5.000000
G00 X66.346353 Y189.179377

G01 Z-0.125000 F1000.0(Penetrate)
G03 X66.899813 Y189.552733 Z-0.125000 I0.000000 J0.596901 F1000.000000
G03 X67.108353 Y191.945155 Z-0.125000 I-3.805360 J1.537001
G00 Z5.000000

(End cutting path id: path3576)


(Start cutting path id: path3574)
(Change tool to Cylindrical cutter)

G00 Z5.000000
G00 X71.115908 Y188.586711

G01 Z-0.125000 F1000.0(Penetrate)
G03 X71.755899 Y190.751280 Z-0.125000 I-6.728133 J3.166180 F1000.000000
G03 X71.482797 Y192.763600 Z-0.125000 I-3.772057 J0.512768
G00 Z5.000000

(End cutting path id: path3574)


(Start cutting path id: path3572)
(Change tool to Cylindrical cutter)

G00 Z5.000000
G00 X74.728353 Y188.163377

G01 Z-0.125000 F1000.0(Penetrate)
G03 X75.174209 Y188.409554 Z-0.125000 I0.000000 J0.526839 F1000.000000
G03 X74.954130 Y192.058044 Z-0.125000 I-2.654182 J1.670781
G00 Z5.000000

(End cutting path id: path3572)


(Start cutting path id: path3570)
(Change tool to Cylindrical cutter)

G00 Z5.000000
G00 X56.242797 Y195.501155

G01 Z-0.125000 F1000.0(Penetrate)
G02 X56.474005 Y197.576380 Z-0.125000 I9.428762 J0.000000 F1000.000000
G02 X57.230575 Y198.972489 Z-0.125000 I2.855181 J-0.644209
G00 Z5.000000

(End cutting path id: path3570)


(Start cutting path id: path3568)
(Change tool to Cylindrical cutter)

G00 Z5.000000
G00 X59.827019 Y195.924489

G01 Z-0.125000 F1000.0(Penetrate)
G02 X60.256013 Y199.795612 Z-0.125000 I54.701210 J-4.102591 F1000.000000
G02 X61.040575 Y200.806933 Z-0.125000 I1.288022 J-0.189237
G00 Z5.000000

(End cutting path id: path3568)


(Start cutting path id: path3566)
(Change tool to Cylindrical cutter)

G00 Z5.000000
G00 X65.076353 Y195.388266

G01 Z-0.125000 F1000.0(Penetrate)
G03 X64.659030 Y199.554721 Z-0.125000 I-94.278846 J-7.339072 F1000.000000
G03 X64.032130 Y200.411822 Z-0.125000 I-1.080440 J-0.132440
G00 Z5.000000

(End cutting path id: path3566)


(Start cutting path id: path3564)
(Change tool to Cylindrical cutter)

G00 Z5.000000
G00 X69.168575 Y194.823822

G01 Z-0.125000 F1000.0(Penetrate)
G03 X68.536336 Y198.075468 Z-0.125000 I-26.363114 J-3.438667 F1000.000000
G03 X67.559908 Y199.395822 Z-0.125000 I-2.129723 J-0.553752
G00 Z5.000000

(End cutting path id: path3564)


(Start cutting path id: path3562)
(Change tool to Cylindrical cutter)

G00 Z5.000000
G00 X72.893908 Y194.598044

G01 Z-0.125000 F1000.0(Penetrate)
G03 X71.964311 Y197.116873 Z-0.125000 I-20.443967 J-6.114084 F1000.000000
G03 X71.003019 Y198.182266 Z-0.125000 I-2.101275 J-0.929578
G00 Z5.000000

(End cutting path id: path3562)


(Start cutting path id: path3560)
(Change tool to Cylindrical cutter)

G00 Z5.000000
G00 X48.622797 Y177.523600

G01 Z-0.125000 F1000.0(Penetrate)
G02 X48.665341 Y179.523033 Z-0.125000 I12.700701 J0.729925 F1000.000000
G02 X49.243686 Y180.402266 Z-0.125000 I1.129755 J-0.113305
G03 X49.286787 Y182.527653 Z-0.125000 I-0.597358 J1.075244
G02 X47.324575 Y184.071155 Z-0.125000 I5.480503 J8.986218
G00 Z5.000000

(End cutting path id: path3560)


(Start cutting path id: path3558)
(Change tool to Cylindrical cutter)

G00 Z5.000000
G00 X39.591686 Y149.865822

G01 Z-0.125000 F1000.0(Penetrate)
G03 X36.356944 Y149.038840 Z-0.125000 I2.979059 J-18.392451 F1000.000000
G03 X34.878575 Y147.692710 Z-0.125000 I0.858993 J-2.428242
G00 Z5.000000

(End cutting path id: path3558)


(Start cutting path id: path3556)
(Change tool to Cylindrical cutter)

G00 Z5.000000
G00 X48.989686 Y148.116044

G01 Z-0.125000 F1000.0(Penetrate)
G03 X47.093174 Y151.694995 Z-0.125000 I-23.433194 J-10.125454 F1000.000000
G03 X45.236130 Y152.772711 Z-0.125000 I-1.967996 J-1.252292
G02 X40.618732 Y153.574133 Z-0.125000 I0.899189 J18.882977
G03 X38.462797 Y152.857377 Z-0.125000 I-0.572868 J-1.877672
G00 Z5.000000

(End cutting path id: path3556)


(Start cutting path id: path3554)
(Change tool to Cylindrical cutter)

G00 Z5.000000
G00 X51.529686 Y139.423599

G01 Z-0.125000 F1000.0(Penetrate)
G02 X51.130427 Y137.732244 Z-0.125000 I-6.101925 J0.547609 F1000.000000
G02 X50.175019 Y136.798933 Z-0.125000 I-1.514391 J0.594576
G00 Z5.000000

(End cutting path id: path3554)


(Start cutting path id: path3552)
(Change tool to Cylindrical cutter)

G00 Z5.000000
G00 X56.666130 Y139.931599

G01 Z-0.125000 F1000.0(Penetrate)
G02 X56.528709 Y137.972644 Z-0.125000 I-6.768696 J-0.509472 F1000.000000
G02 X55.537241 Y136.883599 Z-0.125000 I-1.439452 J0.314640
G00 Z5.000000

(End cutting path id: path3552)


(Start cutting path id: path3550)
(Change tool to Cylindrical cutter)

G00 Z5.000000
G00 X63.580575 Y139.338933

G01 Z-0.125000 F1000.0(Penetrate)
G02 X63.396615 Y137.393841 Z-0.125000 I-10.375178 J0.000000 F1000.000000
G02 X62.677464 Y136.516710 Z-0.125000 I-1.165885 J0.222520
G00 Z5.000000

(End cutting path id: path3550)


(Start cutting path id: path3548)
(Change tool to Cylindrical cutter)

G00 Z5.000000
G00 X69.450797 Y139.621155

G01 Z-0.125000 F1000.0(Penetrate)
G02 X69.470558 Y138.081579 Z-0.125000 I-2.448548 J-0.801343 F1000.000000
G02 X68.829908 Y136.798933 Z-0.125000 I-3.998781 J1.195974
G00 Z5.000000

(End cutting path id: path3548)


(Start cutting path id: path3546)
(Change tool to Cylindrical cutter)

G00 Z5.000000
G00 X53.900353 Y144.418933

G01 Z-0.125000 F1000.0(Penetrate)
G02 X53.789515 Y143.686139 Z-0.125000 I-1.178846 J-0.196474 F1000.000000
G02 X53.138353 Y142.923155 Z-0.125000 I-1.877044 J0.942592
G00 Z5.000000

(End cutting path id: path3546)


(Start cutting path id: path3544)
(Change tool to Cylindrical cutter)

G00 Z5.000000
G00 X60.673686 Y144.221377

G01 Z-0.125000 F1000.0(Penetrate)
G02 X60.452598 Y142.549095 Z-0.125000 I-8.060915 J0.214958 F1000.000000
G02 X59.770575 Y141.737822 Z-0.125000 I-1.153948 J0.277784
G00 Z5.000000

(End cutting path id: path3544)


(Start cutting path id: path3542)
(Change tool to Cylindrical cutter)

G00 Z5.000000
G00 X66.882575 Y144.842266

G01 Z-0.125000 F1000.0(Penetrate)
G03 X66.877185 Y142.846512 Z-0.125000 I21.097242 J-1.054862 F1000.000000
G02 X66.092353 Y141.737822 Z-0.125000 I-1.105858 J-0.049306
G00 Z5.000000

(End cutting path id: path3542)


(Start cutting path id: path3540)
(Change tool to Cylindrical cutter)

G00 Z5.000000
G00 X58.077241 Y148.370044

G01 Z-0.125000 F1000.0(Penetrate)
G02 X57.743139 Y146.995731 Z-0.125000 I-5.589536 J0.631077 F1000.000000
G02 X57.033019 Y146.253377 Z-0.125000 I-1.236219 J0.471721
G00 Z5.000000

(End cutting path id: path3540)


(Start cutting path id: path3538)
(Change tool to Cylindrical cutter)

G00 Z5.000000
G00 X63.129019 Y146.281599

G01 Z-0.125000 F1000.0(Penetrate)
G03 X63.889254 Y147.473866 Z-0.125000 I-7.110986 J5.372745 F1000.000000
G03 X64.229686 Y148.511155 Z-0.125000 I-2.831275 J1.503716
G00 Z5.000000

(End cutting path id: path3538)


(Start cutting path id: path3512)
(Change tool to Cylindrical cutter)

G00 Z5.000000
G00 X58.077241 Y168.718266

G01 Z-0.125000 F1000.0(Penetrate)
G03 X57.938176 Y172.639539 Z-0.125000 I-122.818368 J-2.392566 F1000.000000
G03 X57.569241 Y173.544266 Z-0.125000 I-1.480657 J-0.076204
G03 X56.273590 Y174.944955 Z-0.125000 I-30.465654 J-26.881459
G02 X55.621908 Y177.438933 Z-0.125000 I1.880850 J1.823602
G00 Z5.000000

(End cutting path id: path3512)


(Start cutting path id: path3502)
(Change tool to Cylindrical cutter)

G00 Z5.000000
G00 X66.318130 Y151.869599

G01 Z-0.125000 F1000.0(Penetrate)
G02 X62.101085 Y150.692859 Z-0.125000 I-10.854657 J30.754862 F1000.000000
G02 X59.460130 Y150.825377 Z-0.125000 I-1.066385 J5.130065
G02 X57.624369 Y151.519854 Z-0.125000 I5.227766 J16.592473
G02 X51.116936 Y154.518961 Z-0.125000 I105.768781 J238.055547
G02 X44.589654 Y157.769408 Z-0.125000 I95.731613 J200.419406
G02 X44.022575 Y158.360711 Z-0.125000 I0.585671 J1.129253
G00 Z5.000000

(End cutting path id: path3502)


(Start cutting path id: path3500)
(Change tool to Cylindrical cutter)

G00 Z5.000000
G00 X46.731908 Y161.380488

G01 Z-0.125000 F1000.0(Penetrate)
G03 X48.223159 Y170.099218 Z-0.125000 I-327.252215 J60.460087 F1000.000000
G03 X48.058353 Y172.500044 Z-0.125000 I-5.335719 J0.839796
G00 Z5.000000

(End cutting path id: path3500)


(Start cutting path id: path3498)
(Change tool to Cylindrical cutter)

G00 Z5.000000
G00 X50.739464 Y172.810488

G01 Z-0.125000 F1000.0(Penetrate)
G02 X48.842641 Y172.547325 Z-0.125000 I-2.784889 J13.105361 F1000.000000
G02 X47.917241 Y172.895155 Z-0.125000 I-0.079312 J1.193917
G02 X46.332027 Y175.943531 Z-0.125000 I4.034243 J4.034243
G02 X45.744130 Y179.753155 Z-0.125000 I92.341392 J16.200196
G03 X44.749309 Y183.369003 Z-0.125000 I-11.104881 J-1.110488
G02 X44.897464 Y188.868933 Z-0.125000 I5.565973 J2.602028
G02 X45.657304 Y189.980688 Z-0.125000 I5.488998 J-2.935976
G02 X46.590797 Y190.844489 Z-0.125000 I4.165586 J-3.565365
G00 Z5.000000

(End cutting path id: path3498)


(Start cutting path id: path3496)
(Change tool to Cylindrical cutter)

G00 Z5.000000
G00 X65.781908 Y158.417155

G01 Z-0.125000 F1000.0(Penetrate)
G01 X65.588651 Y154.676994 Z-0.125000 F1000.000000
G02 X66.423864 Y153.175865 Z-0.125000 I-14.152049 J-8.856983
G02 X66.487464 Y152.405822 Z-0.125000 I-0.949617 J-0.466079
G03 X66.679129 Y151.435557 Z-0.125000 I1.013112 J-0.303934
G03 X77.070797 Y138.661599 Z-0.125000 I4543.067930 J3685.191045
G02 X77.125506 Y136.240112 Z-0.125000 I-21.101259 J-1.688101
G02 X76.703908 Y135.077377 Z-0.125000 I-2.005948 J0.069538
G02 X74.433925 Y133.915387 Z-0.125000 I-2.425801 J1.940641
G02 X66.402797 Y133.750933 Z-0.125000 I-6.782899 J135.060397
G01 X38.851174 Y134.117822 Z-0.125000
G02 X35.307094 Y137.042076 Z-0.125000 I34.605935 J45.550791
G02 X34.003686 Y138.877779 Z-0.125000 I3.389530 J3.787258
G02 X32.901120 Y147.505297 Z-0.125000 I15.220266 J6.329307
G02 X34.539908 Y151.897822 Z-0.125000 I10.770950 J-1.516521
G02 X35.899121 Y153.154363 Z-0.125000 I3.284974 J-2.189983
G02 X44.897464 Y158.106711 Z-0.125000 I390.283339 J-698.487886
G02 X46.562812 Y161.185142 Z-0.125000 I68.228241 J-34.919966
G02 X47.352797 Y161.493377 Z-0.125000 I0.585551 J-0.334271
G02 X48.986678 Y159.900919 Z-0.125000 I-0.772102 J-2.426605
G03 X49.892797 Y158.868711 Z-0.125000 I1.720463 J0.596479
G03 X51.790006 Y157.845313 Z-0.125000 I16.268547 J27.888937
G03 X59.629464 Y154.635377 Z-0.125000 I25.968465 J52.243496
G03 X62.728540 Y154.355395 Z-0.125000 I2.174717 J6.779999
G02 X64.428040 Y154.466179 Z-0.125000 I1.699500 J-12.980270
G00 Z5.000000

(End cutting path id: path3496)


(Start cutting path id: path3641)
(Change tool to Cylindrical cutter)

G00 Z5.000000
G00 X74.982353 Y187.965822

G01 Z-0.125000 F1000.0(Penetrate)
G01 X76.421686 Y185.679822 Z-0.125000 F1000.000000
G02 X76.595631 Y184.480377 Z-0.125000 I-3.471142 J-1.115724
G02 X76.393464 Y183.280933 Z-0.125000 I-4.236495 J0.097304
G01 X75.490353 Y180.599822 Z-0.125000
G03 X75.385203 Y179.736539 Z-0.125000 I1.919589 J-0.671856
G03 X75.659686 Y178.878266 Z-0.125000 I2.099870 J0.198530
G02 X75.909980 Y178.036230 Z-0.125000 I-1.513508 J-0.908105
G03 X76.083019 Y177.128488 Z-0.125000 I3.070895 J0.115030
G02 X76.152257 Y176.414096 Z-0.125000 I-1.446630 J-0.500756
G02 X74.788325 Y168.672405 Z-0.125000 I-113.228957 J15.957700
G02 X72.958257 Y161.491594 Z-0.125000 I-88.924570 J18.839294
G02 X71.736797 Y160.195155 Z-0.125000 I-1.901792 J0.568174
G02 X66.879412 Y158.772324 Z-0.125000 I-13.374059 J36.654828
G02 X63.919241 Y158.981599 Z-0.125000 I-1.130234 J5.053225
G02 X57.598100 Y162.388752 Z-0.125000 I9.556987 J25.297907
G02 X53.561686 Y166.319377 Z-0.125000 I11.478973 J15.825755
G03 X51.688274 Y168.401190 Z-0.125000 I-14.140014 J-10.840677
G02 X50.937019 Y169.790711 Z-0.125000 I1.750829 J1.844444
G00 Z5.000000

(End cutting path id: path3641)


(Start cutting path id: path3639)
(Change tool to Cylindrical cutter)

G00 Z5.000000
G00 X76.619242 Y188.163377

G01 Z-0.125000 F1000.0(Penetrate)
G03 X76.923816 Y191.927266 Z-0.125000 I-5.101592 J2.307089 F1000.000000
G03 X74.079242 Y196.347822 Z-0.125000 I-8.356553 J-2.251839
G03 X66.998404 Y200.505458 Z-0.125000 I-16.543552 J-20.066716
G03 X61.351019 Y201.230266 Z-0.125000 I-4.274688 J-10.943113
G03 X50.520427 Y197.665617 Z-0.125000 I3.299472 J-28.260697
G03 X46.506130 Y191.634711 Z-0.125000 I4.021135 J-7.028004
G03 X50.008917 Y185.267072 Z-0.125000 I6.218878 J-0.726292
G02 X50.795908 Y184.014711 Z-0.125000 I-0.602963 J-1.252361
G03 X52.052579 Y180.971791 Z-0.125000 I4.312418 J0.000000
G02 X53.335908 Y177.241377 Z-0.125000 I-3.200369 J-3.186935
G02 X52.896617 Y177.219004 Z-0.125000 I-0.221240 J0.020113
G02 X54.690575 Y184.014711 Z-0.125000 I7.921559 J1.543477
G02 X56.896207 Y185.968038 Z-0.125000 I8.674284 J-7.572788
G02 X58.161908 Y186.357155 Z-0.125000 I1.265701 J-1.863945
G03 X58.848949 Y187.201332 Z-0.125000 I0.000000 J0.701666
G03 X58.161908 Y189.828489 Z-0.125000 I-25.947301 J-5.382194
G03 X71.546543 Y187.418967 Z-0.125000 I163.106070 J867.657030
G03 X74.530797 Y187.486044 Z-0.125000 I1.320411 J7.673218
G02 X75.912199 Y187.781213 Z-0.125000 I31.123586 J-142.279249
G03 X76.619242 Y188.163377 Z-0.125000 I-0.287111 J1.376317
G01 X76.619242 Y188.163377 Z-0.125000
G00 Z5.000000

(End cutting path id: path3639)


(Start cutting path id: path3582)
(Change tool to Cylindrical cutter)

G00 Z5.000000
G00 X72.103686 Y165.472711

G01 Z-0.125000 F1000.0(Penetrate)
G02 X69.102773 Y164.800053 Z-0.125000 I-7.417736 J26.062317 F1000.000000
G02 X67.983242 Y165.388044 Z-0.125000 I-0.170892 J1.034409
G00 Z5.000000

(End cutting path id: path3582)


(Start cutting path id: path3536)
(Change tool to Cylindrical cutter)

G00 Z5.000000
G00 X73.599464 Y179.781377

G01 Z-0.125000 F1000.0(Penetrate)
G02 X73.606745 Y180.303205 Z-0.125000 I0.472407 J0.254373 F1000.000000
G02 X74.248575 Y181.277155 Z-0.125000 I8.316903 J-4.782355
G00 Z5.000000

(End cutting path id: path3536)


(Start cutting path id: path3534)
(Change tool to Cylindrical cutter)

G00 Z5.000000
G00 X74.897686 Y181.361822

G01 Z-0.125000 F1000.0(Penetrate)
G03 X73.109342 Y181.562288 Z-0.125000 I-1.462992 J-4.974172 F1000.000000
G03 X71.849686 Y180.712711 Z-0.125000 I0.094205 J-1.498302
G00 Z5.000000

(End cutting path id: path3534)


(Start cutting path id: path3532)
(Change tool to Cylindrical cutter)

G00 Z5.000000
G00 X71.454575 Y167.420044

G01 Z-0.125000 F1000.0(Penetrate)
G02 X71.933588 Y167.863999 Z-0.125000 I2.895265 J-2.643502 F1000.000000
G02 X72.273019 Y167.843377 Z-0.125000 I0.158071 J-0.201981
G02 X72.512883 Y167.493300 Z-0.125000 I-0.817000 J-0.817000
G02 X72.837464 Y166.686266 Z-0.125000 I-11.834950 J-5.228681
G00 Z5.000000

(End cutting path id: path3532)


(Start cutting path id: path3530)
(Change tool to Cylindrical cutter)

G00 Z5.000000
G00 X70.664353 Y167.476488

G01 Z-0.125000 F1000.0(Penetrate)
G03 X69.697211 Y167.812053 Z-0.125000 I-5.534612 J-14.389990 F1000.000000
G03 X69.366130 Y167.758711 Z-0.125000 I-0.111776 J-0.360368
G02 X69.015131 Y167.570014 Z-0.125000 I-1.617650 J2.588240
G02 X67.926797 Y167.081377 Z-0.125000 I-41.684282 J91.386405
G00 Z5.000000

(End cutting path id: path3530)


(Start cutting path id: path3528)
(Change tool to Cylindrical cutter)

G00 Z5.000000
G00 X72.668130 Y166.404044

G01 Z-0.125000 F1000.0(Penetrate)
G03 X72.043141 Y166.676284 Z-0.125000 I-1.119528 J-1.716609 F1000.000000
G03 X71.369908 Y166.686266 Z-0.125000 I-0.358040 J-1.439904
G02 X70.304495 Y166.549333 Z-0.125000 I-1.324690 J6.093575
G02 X65.697241 Y166.375822 Z-0.125000 I-24.280871 J583.477132
G00 Z5.000000

(End cutting path id: path3528)


(Start cutting path id: path3522)
(Change tool to Cylindrical cutter)

G00 Z5.000000
G00 X63.524130 Y181.164266

G01 Z-0.125000 F1000.0(Penetrate)
G02 X63.465777 Y180.544595 Z-0.125000 I-1.522715 J-0.169191 F1000.000000
G02 X63.100797 Y180.035377 Z-0.125000 I-0.942049 J0.289802
G02 X62.439672 Y179.923465 Z-0.125000 I-0.444130 J0.614949
G02 X61.746130 Y180.684488 Z-0.125000 I0.285659 J0.956863
G00 Z5.000000

(End cutting path id: path3522)


(Start cutting path id: path3520)
(Change tool to Cylindrical cutter)

G00 Z5.000000
G00 X66.600353 Y181.136044

G01 Z-0.125000 F1000.0(Penetrate)
G03 X66.521193 Y181.237532 Z-0.125000 I-0.720207 J-0.480138 F1000.000000
G03 X66.402797 Y181.361822 Z-0.125000 I-2.618108 J-2.375422
G03 X66.226426 Y181.572289 Z-0.125000 I-4.714307 J-3.771446
G03 X65.894797 Y181.926266 Z-0.125000 I-5.595517 J-4.909912
G02 X65.725464 Y182.109711 Z-0.125000 I2.208389 J2.208389
G03 X65.556130 Y182.293155 Z-0.125000 I-2.377722 J-2.024944
G02 X65.360609 Y182.493821 Z-0.125000 I7.628993 J7.628993
G03 X65.104575 Y182.716488 Z-0.125000 I-1.289552 J-1.224257
G03 X64.988861 Y182.816160 Z-0.125000 I-0.726951 J-0.726951
G03 X64.737686 Y182.998711 Z-0.125000 I-11.217088 J-15.169728
G03 X64.684933 Y183.034058 Z-0.125000 I-0.115831 J-0.115831
G02 X64.540130 Y183.111600 Z-0.125000 I0.328710 J0.787811
G02 X64.483686 Y183.125711 Z-0.125000 I0.000000 J0.119944
G03 X64.427241 Y183.139822 Z-0.125000 I-0.056444 J-0.105833
G01 X64.370797 Y183.139822 Z-0.125000
G01 X64.286130 Y183.139822 Z-0.125000
G03 X64.160824 Y183.136258 Z-0.125000 I-0.000000 J-2.204595
G03 X64.032130 Y183.111600 Z-0.125000 I0.028200 J-0.495338
G01 X63.975686 Y183.111600 Z-0.125000
G02 X64.003718 Y183.113117 Z-0.125000 I0.016781 J-0.050344
G01 X64.003908 Y183.111600 Z-0.125000
G01 X64.003908 Y183.111600 Z-0.125000
G01 X64.003908 Y183.111600 Z-0.125000
G01 X63.919241 Y183.083377 Z-0.125000
G01 X63.862797 Y183.083377 Z-0.125000
G01 X63.298353 Y182.998711 Z-0.125000
G03 X62.051493 Y182.804248 Z-0.125000 I6.961259 J-48.728814
G03 X61.068797 Y182.631822 Z-0.125000 I13.505261 J-79.856191
G03 X60.815643 Y182.585423 Z-0.125000 I1.312171 J-7.873026
G03 X60.645464 Y182.547155 Z-0.125000 I0.718983 J-3.594917
G03 X60.442121 Y182.502503 Z-0.125000 I1.087941 J-5.439703
G03 X60.278575 Y182.462488 Z-0.125000 I3.898839 J-16.289553
G02 X60.191577 Y182.422583 Z-0.125000 I-0.637317 J1.274633
G02 X60.109241 Y182.406044 Z-0.125000 I-0.082335 J0.196673
G03 X60.066908 Y182.391933 Z-0.125000 I0.000000 J-0.070556
G02 X60.024575 Y182.377822 Z-0.125000 I-0.042333 J0.056444
G03 X59.997285 Y182.371079 Z-0.125000 I0.000000 J-0.058591
G03 X59.968130 Y182.349600 Z-0.125000 I0.056265 J-0.106899
G01 X59.939908 Y182.335488 Z-0.125000
G01 X59.911686 Y182.321377 Z-0.125000
G03 X59.784842 Y182.236996 Z-0.125000 I0.841380 J-1.402300
G03 X59.685908 Y182.152044 Z-0.125000 I0.509137 J-0.693022
G03 X59.452108 Y181.587600 Z-0.125000 I0.564444 J-0.564444
G03 X59.685908 Y181.023155 Z-0.125000 I0.798245 J0.000000
G03 X60.250353 Y180.789355 Z-0.125000 I0.564444 J0.564444
G03 X60.814797 Y181.023155 Z-0.125000 I0.000000 J0.798245
G01 X60.730130 Y180.938488 Z-0.125000
G01 X60.712743 Y180.932496 Z-0.125000
G01 X60.701908 Y180.910266 Z-0.125000
G01 X60.673686 Y180.910266 Z-0.125000
G01 X60.701908 Y180.910266 Z-0.125000
G03 X60.727617 Y180.916335 Z-0.125000 I0.000000 J0.057486
G03 X60.758353 Y180.938488 Z-0.125000 I-0.052889 J0.105779
G02 X60.845402 Y180.964456 Z-0.125000 I0.117498 J-0.234996
G03 X61.012353 Y180.994933 Z-0.125000 I-0.152770 J1.309359
G02 X61.175898 Y181.034947 Z-0.125000 I4.062385 J-16.249539
G02 X61.379241 Y181.079600 Z-0.125000 I1.291284 J-5.395050
G02 X62.269983 Y181.232177 Z-0.125000 I3.193883 J-15.969416
G02 X63.552353 Y181.390044 Z-0.125000 I4.707791 J-32.954536
G01 X64.201464 Y181.474711 Z-0.125000
G01 X64.370797 Y181.502933 Z-0.125000
G01 X64.370797 Y181.502933 Z-0.125000
G01 X64.427241 Y181.502933 Z-0.125000
G01 X64.370797 Y181.502933 Z-0.125000
G02 X64.257908 Y181.484614 Z-0.125000 I-0.112889 J0.338667
G02 X64.145019 Y181.502933 Z-0.125000 I-0.000000 J0.356986
G01 X64.088575 Y181.502933 Z-0.125000
G01 X64.060353 Y181.502933 Z-0.125000
G02 X64.018019 Y181.517044 Z-0.125000 I0.000000 J0.070556
G03 X63.975686 Y181.531155 Z-0.125000 I-0.042333 J-0.056444
G03 X63.927249 Y181.552599 Z-0.125000 I-0.252821 J-0.505643
G03 X63.891019 Y181.559377 Z-0.125000 I-0.036230 J-0.093432
G01 X63.889497 Y181.550324 Z-0.125000
G02 X63.975686 Y181.474711 Z-0.125000 I-0.049668 J-0.143542
G01 X64.314353 Y181.136044 Z-0.125000
G02 X64.485279 Y180.961596 Z-0.125000 I-8.469146 J-8.469146
G02 X64.624797 Y180.797377 Z-0.125000 I-1.280111 J-1.228940
G02 X64.909385 Y180.465058 Z-0.125000 I-15.458493 J-13.526181
G02 X65.076353 Y180.261155 Z-0.125000 I-8.863781 J-7.428502
G03 X65.172195 Y180.143955 Z-0.125000 I5.504141 J4.403313
G03 X65.245686 Y180.063600 Z-0.125000 I0.937216 J0.783369
G01 X65.245686 Y180.063600 Z-0.125000
G03 X65.831501 Y179.755598 Z-0.125000 I0.673503 J0.569887
G03 X66.459241 Y179.950711 Z-0.125000 I0.083710 J0.838058
G03 X66.789832 Y180.514008 Z-0.125000 I-0.465688 J0.651963
G03 X66.600353 Y181.136044 Z-0.125000 I-0.817088 J0.090983
G01 X66.600353 Y181.136044 Z-0.125000
G01 X66.600353 Y181.136044 Z-0.125000
G00 Z5.000000

(End cutting path id: path3520)


(Start cutting path id: path5048-7)
(Change tool to Cylindrical cutter)

G00 Z5.000000
G00 X150.255008 Y73.314339

G01 Z-0.125000 F1000.0(Penetrate)
G01 X151.965534 Y71.603812 Z-0.125000 F1000.000000
G00 Z5.000000

(End cutting path id: path5048-7)


(Start cutting path id: path5042-3)
(Change tool to Cylindrical cutter)

G00 Z5.000000
G00 X151.802731 Y78.893787

G01 Z-0.125000 F1000.0(Penetrate)
G01 X153.126142 Y77.712919 Z-0.125000 F1000.000000
G00 Z5.000000

(End cutting path id: path5042-3)


(Start cutting path id: path5040-6)
(Change tool to Cylindrical cutter)

G00 Z5.000000
G00 X142.700209 Y125.342779

G01 Z-0.125000 F1000.0(Penetrate)
G01 X141.702404 Y121.921729 Z-0.125000 F1000.000000
G00 Z5.000000

(End cutting path id: path5040-6)


(Start cutting path id: path5038-1)
(Change tool to Cylindrical cutter)

G00 Z5.000000
G00 X121.318608 Y125.912958

G01 Z-0.125000 F1000.0(Penetrate)
G01 X122.601502 Y123.062085 Z-0.125000 F1000.000000
G00 Z5.000000

(End cutting path id: path5038-1)


(Start cutting path id: path5036-6)
(Change tool to Cylindrical cutter)

G00 Z5.000000
G00 X146.844296 Y118.225891

G01 Z-0.125000 F1000.0(Penetrate)
G01 X150.387268 Y123.336848 Z-0.125000 F1000.000000
G00 Z5.000000

(End cutting path id: path5036-6)


(Start cutting path id: path5034-2)
(Change tool to Cylindrical cutter)

G00 Z5.000000
G00 X118.920111 Y119.473739

G01 Z-0.125000 F1000.0(Penetrate)
G01 X115.592118 Y123.942082 Z-0.125000 F1000.000000
G00 Z5.000000

(End cutting path id: path5034-2)


(Start cutting path id: path5032-9)
(Change tool to Cylindrical cutter)

G00 Z5.000000
G00 X112.281454 Y79.084513

G01 Z-0.125000 F1000.0(Penetrate)
G01 X110.257122 Y76.632555 Z-0.125000 F1000.000000
G00 Z5.000000

(End cutting path id: path5032-9)


(Start cutting path id: path5028-4)
(Change tool to Cylindrical cutter)

G00 Z5.000000
G00 X136.603089 Y70.003522

G01 Z-0.125000 F1000.0(Penetrate)
G01 X137.821394 Y66.647065 Z-0.125000 F1000.000000
G00 Z5.000000

(End cutting path id: path5028-4)


(Start cutting path id: path5026-6)
(Change tool to Cylindrical cutter)

G00 Z5.000000
G00 X129.889956 Y69.911992

G01 Z-0.125000 F1000.0(Penetrate)
G01 X129.567455 Y66.453528 Z-0.125000 F1000.000000
G00 Z5.000000

(End cutting path id: path5026-6)


(Start cutting path id: path5024-1)
(Change tool to Cylindrical cutter)

G00 Z5.000000
G00 X122.946333 Y70.950818

G01 Z-0.125000 F1000.0(Penetrate)
G03 X121.978985 Y68.480741 Z-0.125000 I56.927440 J-23.718766 F1000.000000
G02 X121.401446 Y67.267776 Z-0.125000 I-6.818242 J2.502448
G00 Z5.000000

(End cutting path id: path5024-1)


(Start cutting path id: path5020-4)
(Change tool to Cylindrical cutter)

G00 Z5.000000
G00 X114.652925 Y115.615942

G01 Z-0.125000 F1000.0(Penetrate)
G01 X111.449240 Y118.677082 Z-0.125000 F1000.000000
G00 Z5.000000

(End cutting path id: path5020-4)


(Start cutting path id: path5018-4)
(Change tool to Cylindrical cutter)

G00 Z5.000000
G00 X150.970689 Y114.227372

G01 Z-0.125000 F1000.0(Penetrate)
G01 X152.960362 Y115.646871 Z-0.125000 F1000.000000
G00 Z5.000000

(End cutting path id: path5018-4)


(Start cutting path id: line3636-6)
(Change tool to Cylindrical cutter)

G00 Z5.000000
G00 X120.465523 Y110.837542

G01 Z-0.125000 F1000.0(Penetrate)
G01 X119.618857 Y111.486664 Z-0.125000 F1000.000000
G00 Z5.000000

(End cutting path id: line3636-6)


(Start cutting path id: line3634-7)
(Change tool to Cylindrical cutter)

G00 Z5.000000
G00 X115.780640 Y89.473333

G01 Z-0.125000 F1000.0(Penetrate)
G01 X114.171971 Y88.739547 Z-0.125000 F1000.000000
G00 Z5.000000

(End cutting path id: line3634-7)


(Start cutting path id: line3632-1)
(Change tool to Cylindrical cutter)

G00 Z5.000000
G00 X115.780640 Y94.553333

G01 Z-0.125000 F1000.0(Penetrate)
G01 X113.043082 Y93.988889 Z-0.125000 F1000.000000
G00 Z5.000000

(End cutting path id: line3632-1)


(Start cutting path id: line3630-6)
(Change tool to Cylindrical cutter)

G00 Z5.000000
G00 X117.078857 Y100.395322

G01 Z-0.125000 F1000.0(Penetrate)
G01 X113.240640 Y101.241989 Z-0.125000 F1000.000000
G00 Z5.000000

(End cutting path id: line3630-6)


(Start cutting path id: line3628-2)
(Change tool to Cylindrical cutter)

G00 Z5.000000
G00 X118.405304 Y106.519545

G01 Z-0.125000 F1000.0(Penetrate)
G01 X116.062862 Y108.099997 Z-0.125000 F1000.000000
G00 Z5.000000

(End cutting path id: line3628-2)


(Start cutting path id: line3626-7)
(Change tool to Cylindrical cutter)

G00 Z5.000000
G00 X123.852190 Y77.450658

G01 Z-0.125000 F1000.0(Penetrate)
G01 X125.658418 Y82.417778 Z-0.125000 F1000.000000
G00 Z5.000000

(End cutting path id: line3626-7)


(Start cutting path id: line3624-4)
(Change tool to Cylindrical cutter)

G00 Z5.000000
G00 X129.609529 Y76.886214

G01 Z-0.125000 F1000.0(Penetrate)
G01 X129.976415 Y81.288889 Z-0.125000 F1000.000000
G00 Z5.000000

(End cutting path id: line3624-4)


(Start cutting path id: line3622-0)
(Change tool to Cylindrical cutter)

G00 Z5.000000
G00 X135.253973 Y76.773333

G01 Z-0.125000 F1000.0(Penetrate)
G01 X134.407307 Y80.357544 Z-0.125000 F1000.000000
G00 Z5.000000

(End cutting path id: line3622-0)


(Start cutting path id: line3620-0)
(Change tool to Cylindrical cutter)

G00 Z5.000000
G00 X149.449749 Y86.284211

G01 Z-0.125000 F1000.0(Penetrate)
G01 X148.038637 Y86.848655 Z-0.125000 F1000.000000
G00 Z5.000000

(End cutting path id: line3620-0)


(Start cutting path id: line3618-5)
(Change tool to Cylindrical cutter)

G00 Z5.000000
G00 X142.873974 Y112.248661

G01 Z-0.125000 F1000.0(Penetrate)
G01 X142.478857 Y111.966431 Z-0.125000 F1000.000000
G00 Z5.000000

(End cutting path id: line3618-5)


(Start cutting path id: line3616-7)
(Change tool to Cylindrical cutter)

G00 Z5.000000
G00 X150.945524 Y91.166667

G01 Z-0.125000 F1000.0(Penetrate)
G01 X148.405523 Y91.843992 Z-0.125000 F1000.000000
G00 Z5.000000

(End cutting path id: line3616-7)


(Start cutting path id: line3614-4)
(Change tool to Cylindrical cutter)

G00 Z5.000000
G00 X146.712190 Y109.059545

G01 Z-0.125000 F1000.0(Penetrate)
G01 X144.736635 Y107.930656 Z-0.125000 F1000.000000
G00 Z5.000000

(End cutting path id: line3614-4)


(Start cutting path id: line3612-1)
(Change tool to Cylindrical cutter)

G00 Z5.000000
G00 X150.098857 Y103.019997

G01 Z-0.125000 F1000.0(Penetrate)
G01 X146.147746 Y102.935319 Z-0.125000 F1000.000000
G00 Z5.000000

(End cutting path id: line3612-1)


(Start cutting path id: line3610-8)
(Change tool to Cylindrical cutter)

G00 Z5.000000
G00 X151.425304 Y97.093334

G01 Z-0.125000 F1000.0(Penetrate)
G01 X147.671751 Y97.375556 Z-0.125000 F1000.000000
G00 Z5.000000

(End cutting path id: line3610-8)


(Start cutting path id: polygon3608-0)
(Change tool to Cylindrical cutter)

G00 Z5.000000
G00 X134.294415 Y97.177995

G01 Z-0.125000 F1000.0(Penetrate)
G01 X135.451526 Y97.911772 Z-0.125000 F1000.000000
G01 X133.701748 Y103.132883 Z-0.125000
G01 X130.399748 Y101.072661 Z-0.125000
G01 X134.294415 Y97.177995 Z-0.125000
G00 Z5.000000

(End cutting path id: polygon3608-0)


(Start cutting path id: polygon3604-7)
(Change tool to Cylindrical cutter)

G00 Z5.000000
G00 X127.492860 Y97.911772

G01 Z-0.125000 F1000.0(Penetrate)
G01 X128.706415 Y97.290883 Z-0.125000 F1000.000000
G01 X132.262415 Y101.495995 Z-0.125000
G01 X128.819304 Y103.245772 Z-0.125000
G01 X127.492860 Y97.911772 Z-0.125000
G00 Z5.000000

(End cutting path id: polygon3604-7)


(Start cutting path id: polygon3600-9)
(Change tool to Cylindrical cutter)

G00 Z5.000000
G00 X136.580415 Y103.697328

G01 Z-0.125000 F1000.0(Penetrate)
G01 X136.580415 Y104.685106 Z-0.125000 F1000.000000
G01 X130.794860 Y107.958883 Z-0.125000
G01 X130.823082 Y100.338883 Z-0.125000
G01 X136.580415 Y103.697328 Z-0.125000
G00 Z5.000000

(End cutting path id: polygon3600-9)


(Start cutting path id: polygon3596-7)
(Change tool to Cylindrical cutter)

G00 Z5.000000
G00 X126.109971 Y104.628661

G01 Z-0.125000 F1000.0(Penetrate)
G01 X126.138193 Y103.640883 Z-0.125000 F1000.000000
G01 X131.443971 Y100.508217 Z-0.125000
G01 X131.189971 Y108.128217 Z-0.125000
G01 X126.109971 Y104.628661 Z-0.125000
G00 Z5.000000

(End cutting path id: polygon3596-7)


(Start cutting path id: polygon3592-2)
(Change tool to Cylindrical cutter)

G00 Z5.000000
G00 X131.556860 Y119.163106

G01 Z-0.125000 F1000.0(Penetrate)
G01 X130.653748 Y119.163106 Z-0.125000 F1000.000000
G01 X129.073304 Y104.797995 Z-0.125000
G01 X133.560637 Y104.882661 Z-0.125000
G01 X131.556860 Y119.163106 Z-0.125000
G00 Z5.000000

(End cutting path id: polygon3592-2)


(Start cutting path id: path11205-6)
(Change tool to Cylindrical cutter)

G00 Z5.000000
G00 X118.964815 Y77.902651

G01 Z-0.125000 F1000.0(Penetrate)
G03 X124.877941 Y74.770211 Z-0.125000 I12.984198 J17.363008 F1000.000000
G03 X131.951971 Y73.584217 Z-0.125000 I7.074029 J20.504019
G03 X136.178140 Y73.997341 Z-0.125000 I-0.000000 J21.822920
G03 X140.020885 Y75.136981 Z-0.125000 I-4.160585 J21.077545
G00 Z5.000000

(End cutting path id: path11205-6)


(Start cutting path id: path11209-6)
(Change tool to Cylindrical cutter)

G00 Z5.000000
G00 X146.723671 Y79.390741

G01 Z-0.125000 F1000.0(Penetrate)
G03 X151.789589 Y86.421291 Z-0.125000 I-14.945658 J16.109632 F1000.000000
G03 X153.767749 Y95.569328 Z-0.125000 I-20.163562 J9.148037
G03 X149.321797 Y108.880091 Z-0.125000 I-22.148566 J-0.000000
G03 X138.473875 Y116.555166 Z-0.125000 I-17.390740 J-13.076261
G00 Z5.000000

(End cutting path id: path11209-6)


(Start cutting path id: path3588-8-8)
(Change tool to Cylindrical cutter)

G00 Z5.000000
G00 X130.738040 Y127.008957

G01 Z-0.125000 F1000.0(Penetrate)
G02 X133.501491 Y125.734139 Z-0.125000 I0.390159 J-2.786849 F1000.000000
G02 X138.442706 Y116.623179 Z-0.125000 I-62.210402 J-39.634422
G02 X141.520293 Y109.691710 Z-0.125000 I-431.903870 J-195.915157
G02 X146.486040 Y86.143182 Z-0.125000 I-55.001512 J-23.896165
G03 X147.878951 Y66.643402 Z-0.125000 I146.602397 J0.672488
G02 X146.994040 Y65.258737 Z-0.125000 I-1.253341 J-0.174112
G02 X144.694259 Y66.423100 Z-0.125000 I-0.530847 J1.804879
G03 X134.858484 Y82.276737 Z-0.125000 I-42.497453 J-15.387968
G03 X129.995667 Y87.087719 Z-0.125000 I-103.649140 J-99.902785
G03 X126.956262 Y88.570293 Z-0.125000 I-3.895434 J-4.129171
G03 X124.848170 Y87.623486 Z-0.125000 I-0.295011 J-2.163416
G03 X120.207623 Y80.117737 Z-0.125000 I98.336916 J-65.985761
G03 X115.716428 Y71.862877 Z-0.125000 I224.523347 J-127.504872
G02 X114.538484 Y70.649182 Z-0.125000 I-2.619788 J1.364148
G02 X114.072918 Y70.974306 Z-0.125000 I-0.153436 J0.276185
G02 X115.967234 Y81.998043 Z-0.125000 I377.096309 J-59.125521
G02 X118.147182 Y93.194394 Z-0.125000 I750.921491 J-140.395270
G03 X118.856484 Y97.178071 Z-0.125000 I-84.186749 J17.044607
G02 X122.750374 Y112.684472 Z-0.125000 I84.290962 J-12.924614
G02 X124.444484 Y116.792512 Z-0.125000 I40.903312 J-14.464739
G03 X126.391554 Y123.059681 Z-0.125000 I-27.247714 J11.901300
G02 X130.738040 Y127.008957 Z-0.125000 I4.811031 J-0.928453
G01 X130.738040 Y127.008957 Z-0.125000
G00 Z5.000000

(End cutting path id: path3588-8-8)


(Start cutting path id: path11213-0)
(Change tool to Cylindrical cutter)

G00 Z5.000000
G00 X124.224735 Y116.135462

G01 Z-0.125000 F1000.0(Penetrate)
G03 X114.217441 Y108.379566 Z-0.125000 I7.775862 J-20.367119 F1000.000000
G03 X110.136193 Y95.569328 Z-0.125000 I18.063789 J-12.810238
G01 X110.136193 Y95.569328 Z-0.125000
G03 X111.698189 Y87.396867 Z-0.125000 I22.160407 J-0.000000
G03 X115.751422 Y80.845027 Z-0.125000 I20.414175 J8.099365
G00 Z5.000000

(End cutting path id: path11213-0)


(Start cutting path id: rect5014-3)
(Change tool to Cylindrical cutter)

G00 Z5.000000
G00 X115.192909 Y129.365256

G01 Z-0.125000 F1000.0(Penetrate)
G01 X148.522050 Y129.365256 Z-0.125000 F1000.000000
G02 X154.015965 Y127.089602 Z-0.125000 I0.000000 J-7.769569
G02 X156.291620 Y121.595686 Z-0.125000 I-5.493915 J-5.493915
G01 X156.291620 Y70.460683 Z-0.125000
G02 X154.015965 Y64.966769 Z-0.125000 I-7.769565 J-0.000000
G02 X148.522050 Y62.691116 Z-0.125000 I-5.493915 J5.493918
G01 X115.192909 Y62.691116 Z-0.125000
G02 X109.698995 Y64.966769 Z-0.125000 I-0.000000 J7.769571
G02 X107.423340 Y70.460683 Z-0.125000 I5.493910 J5.493913
G01 X107.423340 Y121.595686 Z-0.125000
G02 X109.698994 Y127.089602 Z-0.125000 I7.769569 J-0.000000
G02 X115.192909 Y129.365256 Z-0.125000 I5.493915 J-5.493915
G01 X115.192909 Y129.365256 Z-0.125000
G00 Z5.000000

(End cutting path id: rect5014-3)


(Start cutting path id: path3421)
(Change tool to Cylindrical cutter)

G00 Z5.000000
G00 X36.624260 Y77.974056

G01 Z-0.125000 F1000.0(Penetrate)
G02 X38.610329 Y78.248316 Z-0.125000 I1.131452 J-0.865228 F1000.000000
G02 X38.882038 Y76.280722 Z-0.125000 I-0.838791 J-1.118388
G02 X36.906482 Y75.998500 Z-0.125000 I-1.128889 J0.846667
G02 X36.624260 Y77.974056 Z-0.125000 I0.846667 J1.128889
G01 X36.624260 Y77.974056 Z-0.125000
G00 Z5.000000

(End cutting path id: path3421)


(Start cutting path id: path3419)
(Change tool to Cylindrical cutter)

G00 Z5.000000
G00 X26.323149 Y90.250722

G01 Z-0.125000 F1000.0(Penetrate)
G02 X27.734260 Y88.839611 Z-0.125000 I0.000000 J-1.411111 F1000.000000
G02 X26.323149 Y87.428500 Z-0.125000 I-1.411111 J0.000000
G02 X24.912038 Y88.839611 Z-0.125000 I0.000000 J1.411111
G02 X26.323149 Y90.250722 Z-0.125000 I1.411111 J0.000000
G01 X26.323149 Y90.250722 Z-0.125000
G00 Z5.000000

(End cutting path id: path3419)


(Start cutting path id: path3417)
(Change tool to Cylindrical cutter)

G00 Z5.000000
G00 X83.049815 Y86.722945

G01 Z-0.125000 F1000.0(Penetrate)
G02 X84.178704 Y85.594056 Z-0.125000 I0.000000 J-1.128889 F1000.000000
G02 X83.049815 Y84.465167 Z-0.125000 I-1.128889 J0.000000
G02 X81.920926 Y85.594056 Z-0.125000 I0.000000 J1.128889
G02 X83.049815 Y86.722945 Z-0.125000 I1.128889 J0.000000
G01 X83.049815 Y86.722945 Z-0.125000
G00 Z5.000000

(End cutting path id: path3417)


(Start cutting path id: path3415)
(Change tool to Cylindrical cutter)

G00 Z5.000000
G00 X64.564260 Y110.062722

G01 Z-0.125000 F1000.0(Penetrate)
G02 X65.693149 Y108.933833 Z-0.125000 I0.000000 J-1.128889 F1000.000000
G02 X64.564260 Y107.804944 Z-0.125000 I-1.128889 J0.000000
G02 X63.435371 Y108.933833 Z-0.125000 I0.000000 J1.128889
G02 X64.564260 Y110.062722 Z-0.125000 I1.128889 J0.000000
G01 X64.564260 Y110.062722 Z-0.125000
G00 Z5.000000

(End cutting path id: path3415)


(Start cutting path id: path3413)
(Change tool to Cylindrical cutter)

G00 Z5.000000
G00 X40.998705 Y86.497167

G01 Z-0.125000 F1000.0(Penetrate)
G02 X42.409816 Y85.086056 Z-0.125000 I0.000000 J-1.411111 F1000.000000
G02 X40.998705 Y83.674945 Z-0.125000 I-1.411111 J0.000000
G02 X39.587594 Y85.086056 Z-0.125000 I0.000000 J1.411111
G02 X40.998705 Y86.497167 Z-0.125000 I1.411111 J0.000000
G01 X40.998705 Y86.497167 Z-0.125000
G00 Z5.000000

(End cutting path id: path3413)


(Start cutting path id: path3411)
(Change tool to Cylindrical cutter)

G00 Z5.000000
G00 X78.675371 Y85.735167

G01 Z-0.125000 F1000.0(Penetrate)
G02 X80.086482 Y84.324056 Z-0.125000 I0.000000 J-1.411111 F1000.000000
G02 X78.675371 Y82.912945 Z-0.125000 I-1.411111 J0.000000
G02 X77.264260 Y84.324056 Z-0.125000 I0.000000 J1.411111
G02 X78.675371 Y85.735167 Z-0.125000 I1.411111 J0.000000
G01 X78.675371 Y85.735167 Z-0.125000
G00 Z5.000000

(End cutting path id: path3411)


(Start cutting path id: path3409)
(Change tool to Cylindrical cutter)

G00 Z5.000000
G00 X68.289593 Y111.276277

G01 Z-0.125000 F1000.0(Penetrate)
G02 X69.700704 Y109.865166 Z-0.125000 I0.000000 J-1.411111 F1000.000000
G02 X68.289593 Y108.454055 Z-0.125000 I-1.411111 J0.000000
G02 X66.878482 Y109.865166 Z-0.125000 I0.000000 J1.411111
G02 X68.289593 Y111.276277 Z-0.125000 I1.411111 J0.000000
G01 X68.289593 Y111.276277 Z-0.125000
G00 Z5.000000

(End cutting path id: path3409)


(Start cutting path id: ellipse3407)
(Change tool to Cylindrical cutter)

G00 Z5.000000
G00 X26.010763 Y80.244134

G01 Z-0.125000 F1000.0(Penetrate)
G03 X26.683472 Y79.736171 Z-0.125000 I0.651551 J0.163442 F1000.000000
G03 X31.582092 Y80.419707 Z-0.125000 I-0.728462 J23.115538
G03 X36.223333 Y82.129251 Z-0.125000 I-5.627077 J22.431985
G03 X36.576635 Y82.894590 Z-0.125000 I-0.298250 J0.601897
G03 X35.903927 Y83.402551 Z-0.125000 I-0.651549 J-0.163442
G03 X31.005308 Y82.719017 Z-0.125000 I0.728441 J-23.115451
G03 X26.364062 Y81.009470 Z-0.125000 I5.627064 J-22.431934
G03 X26.010763 Y80.244134 Z-0.125000 I0.298249 J-0.601894
G01 X26.010763 Y80.244134 Z-0.125000
G00 Z5.000000

(End cutting path id: ellipse3407)


(Start cutting path id: ellipse3405)
(Change tool to Cylindrical cutter)

G00 Z5.000000
G00 X29.500246 Y80.890505

G01 Z-0.125000 F1000.0(Penetrate)
G03 X30.612793 Y79.766557 Z-0.125000 I1.940101 J0.807815 F1000.000000
G03 X32.142083 Y79.758760 Z-0.125000 I0.773874 J1.806459
G03 X33.213922 Y80.849609 Z-0.125000 I-0.755416 J1.814256
G03 X33.200022 Y82.431010 Z-0.125000 I-1.954001 J0.773586
G03 X32.087475 Y83.554958 Z-0.125000 I-1.940101 J-0.807815
G03 X30.558185 Y83.562754 Z-0.125000 I-0.773874 J-1.806459
G03 X29.486346 Y82.471906 Z-0.125000 I0.755416 J-1.814256
G03 X29.500246 Y80.890505 Z-0.125000 I1.954001 J-0.773586
G01 X29.500246 Y80.890505 Z-0.125000
G00 Z5.000000

(End cutting path id: ellipse3405)


(Start cutting path id: ellipse3403)
(Change tool to Cylindrical cutter)

G00 Z5.000000
G00 X74.242548 Y109.796804

G01 Z-0.125000 F1000.0(Penetrate)
G03 X74.668377 Y109.069229 Z-0.125000 I0.664382 J-0.099557 F1000.000000
G03 X79.453855 Y107.817281 Z-0.125000 I8.213073 J21.621817
G03 X84.396107 Y107.611545 Z-0.125000 I3.427593 J22.873750
G03 X85.016494 Y108.182346 Z-0.125000 I-0.043994 J0.670358
G03 X84.590668 Y108.909919 Z-0.125000 I-0.664380 J0.099556
G03 X79.805188 Y110.161870 Z-0.125000 I-8.213063 J-21.621729
G03 X74.862934 Y110.367604 Z-0.125000 I-3.427585 J-22.873696
G03 X74.242548 Y109.796804 Z-0.125000 I0.043994 J-0.670356
G01 X74.242548 Y109.796804 Z-0.125000
G00 Z5.000000

(End cutting path id: ellipse3403)


(Start cutting path id: ellipse3401)
(Change tool to Cylindrical cutter)

G00 Z5.000000
G00 X77.772257 Y109.074947

G01 Z-0.125000 F1000.0(Penetrate)
G03 X78.367278 Y107.609745 Z-0.125000 I2.101495 J0.000000 F1000.000000
G03 X79.776035 Y107.014725 Z-0.125000 I1.408757 J1.370162
G03 X81.184793 Y107.609746 Z-0.125000 I0.000000 J1.965182
G03 X81.779812 Y109.074947 Z-0.125000 I-1.506476 J1.465201
G03 X81.184794 Y110.540147 Z-0.125000 I-2.101496 J0.000000
G03 X79.776035 Y111.135169 Z-0.125000 I-1.408759 J-1.370159
G03 X78.367276 Y110.540148 Z-0.125000 I0.000000 J-1.965182
G03 X77.772257 Y109.074947 Z-0.125000 I1.506476 J-1.465201
G01 X77.772257 Y109.074947 Z-0.125000
G00 Z5.000000

(End cutting path id: ellipse3401)


(Start cutting path id: line3399)
(Change tool to Cylindrical cutter)

G00 Z5.000000
G00 X58.778704 Y88.529164

G01 Z-0.125000 F1000.0(Penetrate)
G01 X57.706263 Y88.613836 Z-0.125000 F1000.000000
G00 Z5.000000

(End cutting path id: line3399)


(Start cutting path id: line3397)
(Change tool to Cylindrical cutter)

G00 Z5.000000
G00 X57.875590 Y90.166058

G01 Z-0.125000 F1000.0(Penetrate)
G01 X56.718485 Y90.166058 Z-0.125000 F1000.000000
G00 Z5.000000

(End cutting path id: line3397)


(Start cutting path id: line3395)
(Change tool to Cylindrical cutter)

G00 Z5.000000
G00 X57.367593 Y91.802942

G01 Z-0.125000 F1000.0(Penetrate)
G01 X55.335590 Y91.944053 Z-0.125000 F1000.000000
G00 Z5.000000

(End cutting path id: line3395)


(Start cutting path id: line3393)
(Change tool to Cylindrical cutter)

G00 Z5.000000
G00 X51.920707 Y95.302497

G01 Z-0.125000 F1000.0(Penetrate)
G01 X54.601818 Y88.105831 Z-0.125000 F1000.000000
G00 Z5.000000

(End cutting path id: line3393)


(Start cutting path id: line3391)
(Change tool to Cylindrical cutter)

G00 Z5.000000
G00 X67.809815 Y91.859392

G01 Z-0.125000 F1000.0(Penetrate)
G01 X62.532257 Y92.762497 Z-0.125000 F1000.000000
G00 Z5.000000

(End cutting path id: line3391)


(Start cutting path id: line3389)
(Change tool to Cylindrical cutter)

G00 Z5.000000
G00 X68.938704 Y88.896058

G01 Z-0.125000 F1000.0(Penetrate)
G01 X59.681818 Y90.250719 Z-0.125000 F1000.000000
G00 Z5.000000

(End cutting path id: line3389)


(Start cutting path id: line3387)
(Change tool to Cylindrical cutter)

G00 Z5.000000
G00 X70.688485 Y93.044719

G01 Z-0.125000 F1000.0(Penetrate)
G01 X63.294260 Y94.399392 Z-0.125000 F1000.000000
G00 Z5.000000

(End cutting path id: line3387)


(Start cutting path id: line3385)
(Change tool to Cylindrical cutter)

G00 Z5.000000
G00 X48.562257 Y80.711614

G01 Z-0.125000 F1000.0(Penetrate)
G01 X46.219816 Y80.965611 Z-0.125000 F1000.000000
G00 Z5.000000

(End cutting path id: line3385)


(Start cutting path id: path3383)
(Change tool to Cylindrical cutter)

G00 Z5.000000
G00 X48.477593 Y82.969389

G01 Z-0.125000 F1000.0(Penetrate)
G02 X49.096836 Y80.882250 Z-0.125000 I-5.268808 J-2.698658 F1000.000000
G02 X48.703371 Y78.792500 Z-0.125000 I-3.703409 J-0.384627
G00 Z5.000000

(End cutting path id: path3383)


(Start cutting path id: path3381)
(Change tool to Cylindrical cutter)

G00 Z5.000000
G00 X52.287593 Y74.813167

G01 Z-0.125000 F1000.0(Penetrate)
G03 X50.905765 Y75.947409 Z-0.125000 I-4.733260 J-4.357605 F1000.000000
G03 X49.606482 Y75.942056 Z-0.125000 I-0.645296 J-1.057418
G00 Z5.000000

(End cutting path id: path3381)


(Start cutting path id: path3379)
(Change tool to Cylindrical cutter)

G00 Z5.000000
G00 X41.224482 Y95.951611

G01 Z-0.125000 F1000.0(Penetrate)
G03 X38.729991 Y98.063770 Z-0.125000 I-23.916667 J-25.716847 F1000.000000
G03 X37.470927 Y98.294055 Z-0.125000 I-0.853351 J-1.108567
G00 Z5.000000

(End cutting path id: path3379)


(Start cutting path id: path3377)
(Change tool to Cylindrical cutter)

G00 Z5.000000
G00 X49.747593 Y96.600722

G01 Z-0.125000 F1000.0(Penetrate)
G03 X46.926552 Y96.099841 Z-0.125000 I3.780119 J-29.484927 F1000.000000
G03 X45.796482 Y95.415389 Z-0.125000 I0.465428 J-2.043580
G00 Z5.000000

(End cutting path id: path3377)


(Start cutting path id: path3375)
(Change tool to Cylindrical cutter)

G00 Z5.000000
G00 X44.752260 Y94.484056

G01 Z-0.125000 F1000.0(Penetrate)
G02 X43.995442 Y94.175967 Z-0.125000 I-1.566384 J2.764206 F1000.000000
G02 X43.341149 Y94.201833 Z-0.125000 I-0.284912 J1.081240
G02 X42.708077 Y94.529784 Z-0.125000 I0.836266 J2.389330
G02 X41.873593 Y95.189611 Z-0.125000 I6.204080 J8.703900
G00 Z5.000000

(End cutting path id: path3375)


(Start cutting path id: path3373)
(Change tool to Cylindrical cutter)

G00 Z5.000000
G00 X45.796482 Y95.443611

G01 Z-0.125000 F1000.0(Penetrate)
G03 X44.715730 Y96.382446 Z-0.125000 I-6.257791 J-6.112261 F1000.000000
G03 X43.877371 Y96.657167 Z-0.125000 I-0.838359 J-1.141840
G03 X41.371540 Y96.567436 Z-0.125000 I0.000000 J-35.033892
G03 X41.139816 Y96.318500 Z-0.125000 I0.017851 J-0.248936
G00 Z5.000000

(End cutting path id: path3373)


(Start cutting path id: line3371)
(Change tool to Cylindrical cutter)

G00 Z5.000000
G00 X49.747593 Y109.865164

G01 Z-0.125000 F1000.0(Penetrate)
G01 X50.876482 Y109.498280 Z-0.125000 F1000.000000
G00 Z5.000000

(End cutting path id: line3371)


(Start cutting path id: line3369)
(Change tool to Cylindrical cutter)

G00 Z5.000000
G00 X44.103149 Y110.994052

G01 Z-0.125000 F1000.0(Penetrate)
G01 X46.558485 Y110.768280 Z-0.125000 F1000.000000
G00 Z5.000000

(End cutting path id: line3369)


(Start cutting path id: path3367)
(Change tool to Cylindrical cutter)

G00 Z5.000000
G00 X38.797371 Y110.627166

G01 Z-0.125000 F1000.0(Penetrate)
G02 X40.323852 Y110.803895 Z-0.125000 I5.873563 J-44.051724 F1000.000000
G02 X40.716482 Y110.711833 Z-0.125000 I0.061173 J-0.622394
G00 Z5.000000

(End cutting path id: path3367)


(Start cutting path id: path3365)
(Change tool to Cylindrical cutter)

G00 Z5.000000
G00 X49.662927 Y85.198945

G01 Z-0.125000 F1000.0(Penetrate)
G02 X50.681077 Y83.864541 Z-0.125000 I-3.422597 J-3.667069 F1000.000000
G02 X51.299816 Y82.094500 Z-0.125000 I-5.651817 J-2.968824
G02 X51.364653 Y79.206571 Z-0.125000 I-8.341133 J-1.631961
G02 X50.029816 Y76.393611 Z-0.125000 I-5.300210 J0.791925
G02 X48.530206 Y75.645411 Z-0.125000 I-1.703431 J1.537243
G02 X47.151149 Y75.970278 Z-0.125000 I-0.199863 J2.241057
G02 X46.182828 Y77.225450 Z-0.125000 I1.233079 J1.952375
G02 X45.796482 Y81.050278 Z-0.125000 I8.956593 J2.836632
G02 X46.446496 Y83.843987 Z-0.125000 I11.242338 J-1.143289
G02 X46.868927 Y84.775611 Z-0.125000 I6.869531 J-2.553295
G02 X48.260446 Y85.587478 Z-0.125000 I1.367924 J-0.746140
G02 X49.662927 Y85.198945 Z-0.125000 I-0.043663 J-2.883131
G01 X49.662927 Y85.198945 Z-0.125000
G00 Z5.000000

(End cutting path id: path3365)


(Start cutting path id: line3363)
(Change tool to Cylindrical cutter)

G00 Z5.000000
G00 X59.089152 Y81.784053

G01 Z-0.125000 F1000.0(Penetrate)
G01 X57.678041 Y81.784053 Z-0.125000 F1000.000000
G00 Z5.000000

(End cutting path id: line3363)


(Start cutting path id: line3361)
(Change tool to Cylindrical cutter)

G00 Z5.000000
G00 X62.701590 Y81.784053

G01 Z-0.125000 F1000.0(Penetrate)
G01 X61.234040 Y81.784053 Z-0.125000 F1000.000000
G00 Z5.000000

(End cutting path id: line3361)


(Start cutting path id: line3359)
(Change tool to Cylindrical cutter)

G00 Z5.000000
G00 X65.890707 Y81.614720

G01 Z-0.125000 F1000.0(Penetrate)
G01 X64.564260 Y81.614720 Z-0.125000 F1000.000000
G00 Z5.000000

(End cutting path id: line3359)


(Start cutting path id: line3357)
(Change tool to Cylindrical cutter)

G00 Z5.000000
G00 X67.725152 Y79.526275

G01 Z-0.125000 F1000.0(Penetrate)
G01 X58.440035 Y79.808497 Z-0.125000 F1000.000000
G00 Z5.000000

(End cutting path id: line3357)


(Start cutting path id: line3355)
(Change tool to Cylindrical cutter)

G00 Z5.000000
G00 X84.545590 Y94.907386

G01 Z-0.125000 F1000.0(Penetrate)
G01 X80.086482 Y96.233836 Z-0.125000 F1000.000000
G00 Z5.000000

(End cutting path id: line3355)


(Start cutting path id: line3353)
(Change tool to Cylindrical cutter)

G00 Z5.000000
G00 X75.768485 Y98.350503

G01 Z-0.125000 F1000.0(Penetrate)
G01 X75.429815 Y100.241386 Z-0.125000 F1000.000000
G00 Z5.000000

(End cutting path id: line3353)


(Start cutting path id: path3351)
(Change tool to Cylindrical cutter)

G00 Z5.000000
G00 X71.422260 Y95.810500

G01 Z-0.125000 F1000.0(Penetrate)
G01 X86.182482 Y91.859389 Z-0.125000 F1000.000000
G03 X87.958906 Y94.685604 Z-0.125000 I-39.659187 J26.899275
G03 X87.875815 Y95.725833 Z-0.125000 I-0.792058 J0.460166
G03 X87.249991 Y96.308438 Z-0.125000 I-2.450877 J-2.005263
G03 X86.408260 Y96.798278 Z-0.125000 I-3.222656 J-4.569624
G01 X86.746926 Y98.068278 Z-0.125000
G01 X84.122260 Y98.971389 Z-0.125000
G01 X82.852260 Y98.068278 Z-0.125000
G01 X72.833371 Y101.511389 Z-0.125000
G02 X73.360551 Y100.116343 Z-0.125000 I-3.105056 J-1.970516
G02 X73.200260 Y98.548055 Z-0.125000 I-3.039935 J-0.481630
G02 X71.609600 Y95.775511 Z-0.125000 I-9.660123 J3.699622
G02 X70.603815 Y95.443611 Z-0.125000 I-0.758375 J0.608259
G02 X69.444041 Y95.827877 Z-0.125000 I2.484292 J9.440310
G02 X67.584038 Y97.983611 Z-0.125000 I1.159004 J2.880296
G02 X67.535430 Y99.331005 Z-0.125000 I3.153317 J0.788329
G02 X72.156038 Y102.019389 Z-0.125000 I3.442060 J-0.600993
G00 Z5.000000

(End cutting path id: path3351)


(Start cutting path id: path3349)
(Change tool to Cylindrical cutter)

G00 Z5.000000
G00 X72.410038 Y95.246056

G01 Z-0.125000 F1000.0(Penetrate)
G01 X67.809815 Y82.828278 Z-0.125000 F1000.000000
G01 X65.044038 Y84.182945 Z-0.125000
G01 X51.412704 Y84.832056 Z-0.125000
G02 X53.616299 Y81.507645 Z-0.125000 I-81.226726 J-56.233887
G02 X53.811593 Y80.457611 Z-0.125000 I-1.211944 J-0.768586
G03 X53.988324 Y77.284944 Z-0.125000 I6.223037 J-1.244607
G02 X52.739149 Y75.292945 Z-0.125000 I-1.466921 J-0.467775
G01 X70.886038 Y75.180056 Z-0.125000
G02 X71.346772 Y76.013667 Z-0.125000 I1.565527 J-0.321134
G02 X72.438260 Y76.619389 Z-0.125000 I1.699738 J-1.776590
G03 X73.429061 Y77.860959 Z-0.125000 I-0.325823 J1.276140
G03 X73.284926 Y81.332500 Z-0.125000 I-25.654709 J0.673607
G01 X71.958482 Y82.235611 Z-0.125000
G00 Z5.000000

(End cutting path id: path3349)


(Start cutting path id: line3347)
(Change tool to Cylindrical cutter)

G00 Z5.000000
G00 X71.619815 Y81.981614

G01 Z-0.125000 F1000.0(Penetrate)
G01 X75.796701 Y94.540503 Z-0.125000 F1000.000000
G00 Z5.000000

(End cutting path id: line3347)


(Start cutting path id: path3345)
(Change tool to Cylindrical cutter)

G00 Z5.000000
G00 X49.832260 Y97.221611

G01 Z-0.125000 F1000.0(Penetrate)
G03 X49.230498 Y98.724845 Z-0.125000 I-2.696643 J-0.207434 F1000.000000
G03 X47.518038 Y100.043833 Z-0.125000 I-3.676724 J-3.002392
G03 X42.431985 Y101.773032 Z-0.125000 I-10.651684 J-22.985213
G03 X36.821816 Y99.112500 Z-0.125000 I-1.106279 J-4.912477
G00 Z5.000000

(End cutting path id: path3345)


(Start cutting path id: path3343)
(Change tool to Cylindrical cutter)

G00 Z5.000000
G00 X52.146482 Y96.233833

G01 Z-0.125000 F1000.0(Penetrate)
G03 X52.325984 Y98.987713 Z-0.125000 I-4.491991 J1.675584 F1000.000000
G03 X50.368482 Y101.737167 Z-0.125000 I-4.305561 J-0.993830
G03 X41.350174 Y104.692048 Z-0.125000 I-10.433616 J-16.604034
G03 X34.676927 Y101.313833 Z-0.125000 I-0.524231 J-7.244642
G03 X34.867855 Y100.025809 Z-0.125000 I0.846117 J-0.532740
G02 X36.398482 Y98.548055 Z-0.125000 I-13.091207 J-15.091185
G00 Z5.000000

(End cutting path id: path3343)


(Start cutting path id: path3341)
(Change tool to Cylindrical cutter)

G00 Z5.000000
G00 X62.165371 Y84.662722

G01 Z-0.125000 F1000.0(Penetrate)
G02 X57.846571 Y92.122773 Z-0.125000 I282.514645 J168.534599 F1000.000000
G02 X57.198260 Y94.342944 Z-0.125000 I4.469423 J2.509855
G03 X56.558184 Y95.169666 Z-0.125000 I-0.921290 J-0.052148
G03 X53.416482 Y95.768167 Z-0.125000 I-4.023081 J-12.573216
G03 X50.312608 Y95.582396 Z-0.125000 I-0.822138 J-12.286403
G03 X49.296038 Y94.653389 Z-0.125000 I0.242503 J-1.286057
G03 X49.349247 Y92.999238 Z-0.125000 I2.657211 J-0.742456
G03 X50.971732 Y89.065389 Z-0.125000 I36.925210 J12.927996
G03 X53.088950 Y85.167783 Z-0.125000 I38.488526 J18.383497
G03 X53.642260 Y84.747389 Z-0.125000 I0.816298 J0.500065
G00 Z5.000000

(End cutting path id: path3341)


(Start cutting path id: line3339)
(Change tool to Cylindrical cutter)

G00 Z5.000000
G00 X31.120927 Y106.760719

G01 Z-0.125000 F1000.0(Penetrate)
G01 X29.709816 Y110.147386 Z-0.125000 F1000.000000
G00 Z5.000000

(End cutting path id: line3339)


(Start cutting path id: line3337)
(Change tool to Cylindrical cutter)

G00 Z5.000000
G00 X33.660927 Y107.804947

G01 Z-0.125000 F1000.0(Penetrate)
G01 X32.475591 Y111.248052 Z-0.125000 F1000.000000
G00 Z5.000000

(End cutting path id: line3337)


(Start cutting path id: path3335)
(Change tool to Cylindrical cutter)

G00 Z5.000000
G00 X62.504038 Y93.891389

G01 Z-0.125000 F1000.0(Penetrate)
G03 X62.972806 Y95.661399 Z-0.125000 I-1.769711 J1.415769 F1000.000000
G03 X61.742038 Y98.322278 Z-0.125000 I-5.307676 J-0.839944
G03 X58.313543 Y102.223605 Z-0.125000 I-120.031283 J-102.026590
G03 X47.122927 Y107.833166 Z-0.125000 I-12.855392 J-11.678493
G03 X36.181803 Y107.907487 Z-0.125000 I-5.893377 J-62.207866
G03 X30.838705 Y105.942278 Z-0.125000 I0.857207 J-10.576745
G03 X24.966291 Y100.375268 Z-0.125000 I17.739733 J-24.593721
G03 X24.855594 Y99.818055 Z-0.125000 I0.476994 J-0.384362
G00 Z5.000000

(End cutting path id: path3335)


(Start cutting path id: path3333)
(Change tool to Cylindrical cutter)

G00 Z5.000000
G00 X51.074038 Y89.319389

G01 Z-0.125000 F1000.0(Penetrate)
G02 X47.977965 Y88.888650 Z-0.125000 I-2.933582 J9.743683 F1000.000000
G02 X43.962038 Y89.234722 Z-0.125000 I0.460176 J28.814089
G02 X36.530062 Y91.061997 Z-0.125000 I7.190267 J45.272050
G02 X30.895149 Y93.834944 Z-0.125000 I7.573511 J22.501986
G02 X23.441058 Y100.299569 Z-0.125000 I22.761589 J33.775261
G02 X22.089816 Y104.418278 Z-0.125000 I3.961582 J3.580701
G00 Z5.000000

(End cutting path id: path3333)


(Start cutting path id: path3331)
(Change tool to Cylindrical cutter)

G00 Z5.000000
G00 X22.005149 Y104.615833

G01 Z-0.125000 F1000.0(Penetrate)
G02 X46.071890 Y113.095945 Z-0.125000 I20.396905 J-19.495837 F1000.000000
G02 X56.520927 Y109.582944 Z-0.125000 I-3.720566 J-28.362677
G02 X63.732461 Y104.100109 Z-0.125000 I-16.958310 J-29.789201
G02 X65.777815 Y99.027833 Z-0.125000 I-4.894576 J-4.922223
G02 X65.070082 Y95.227614 Z-0.125000 I-3.016502 J-1.404234
G02 X58.665815 Y91.040944 Z-0.125000 I-14.213292 J14.750217
G00 Z5.000000

(End cutting path id: path3331)


(Start cutting path id: path3329-6)
(Change tool to Cylindrical cutter)

G00 Z5.000000
G00 X27.198038 Y71.652278

G01 Z-0.125000 F1000.0(Penetrate)
G01 X82.541815 Y71.652278 Z-0.125000 F1000.000000
G03 X87.191592 Y73.578279 Z-0.125000 I0.000000 J6.575778
G03 X89.117593 Y78.228056 Z-0.125000 I-4.649777 J4.649777
G01 X89.117593 Y110.288500 Z-0.125000
G03 X87.547034 Y114.080163 Z-0.125000 I-5.362222 J0.000000
G03 X83.755371 Y115.650722 Z-0.125000 I-3.791664 J-3.791664
G01 X26.520705 Y115.650722 Z-0.125000
G03 X22.709085 Y114.071897 Z-0.125000 I-0.000000 J-5.390444
G03 X21.130260 Y110.260278 Z-0.125000 I3.811620 J-3.811620
G01 X21.130260 Y77.748278 Z-0.125000
G03 X22.904543 Y73.440672 Z-0.125000 I6.116148 J-0.000000
G03 X27.198038 Y71.652278 Z-0.125000 I4.293495 J4.259618
G01 X27.198038 Y71.652278 Z-0.125000
G00 Z5.000000

(End cutting path id: path3329-6)


(Start cutting path id: path4341)
(Change tool to Cylindrical cutter)

G00 Z5.000000
G00 X159.841916 Y157.830802

G01 Z-0.125000 F1000.0(Penetrate)
G01 X167.502234 Y157.830802 Z-0.125000 F1000.000000
G01 X164.881598 Y144.727627 Z-0.125000
G00 Z5.000000

(End cutting path id: path4341)


(Start cutting path id: path4339)
(Change tool to Cylindrical cutter)

G00 Z5.000000
G00 X132.426042 Y179.602228

G01 Z-0.125000 F1000.0(Penetrate)
G01 X125.370483 Y179.602228 Z-0.125000 F1000.000000
G01 X125.370483 Y188.875243 Z-0.125000
G01 X140.489534 Y188.875243 Z-0.125000
G00 Z5.000000

(End cutting path id: path4339)


(Start cutting path id: path4337)
(Change tool to Cylindrical cutter)

G00 Z5.000000
G00 X150.165724 Y189.681595

G01 Z-0.125000 F1000.0(Penetrate)
G01 X156.011757 Y189.681595 Z-0.125000 F1000.000000
G01 X156.213345 Y184.238736 Z-0.125000
G00 Z5.000000

(End cutting path id: path4337)


(Start cutting path id: rect4306-4)
(Change tool to Cylindrical cutter)

G00 Z5.000000
G00 X159.841924 Y189.560643

G01 Z-0.125000 F1000.0(Penetrate)
G01 X166.695891 Y189.560643 Z-0.125000 F1000.000000
G01 X166.695891 Y185.125721 Z-0.125000
G01 X159.841924 Y185.125721 Z-0.125000
G01 X159.841924 Y189.560643 Z-0.125000
G00 Z5.000000

(End cutting path id: rect4306-4)


(Start cutting path id: rect4308)
(Change tool to Cylindrical cutter)

G00 Z5.000000
G00 X108.840324 Y188.875241

G01 Z-0.125000 F1000.0(Penetrate)
G01 X122.548261 Y188.875241 Z-0.125000 F1000.000000
G01 X122.548261 Y179.602223 Z-0.125000
G01 X108.840324 Y179.602223 Z-0.125000
G01 X108.840324 Y188.875241 Z-0.125000
G00 Z5.000000

(End cutting path id: rect4308)


(Start cutting path id: rect4306)
(Change tool to Cylindrical cutter)

G00 Z5.000000
G00 X159.841924 Y182.505087

G01 Z-0.125000 F1000.0(Penetrate)
G01 X166.695891 Y182.505087 Z-0.125000 F1000.000000
G01 X166.695891 Y178.070165 Z-0.125000
G01 X159.841924 Y178.070165 Z-0.125000
G01 X159.841924 Y182.505087 Z-0.125000
G00 Z5.000000

(End cutting path id: rect4306)


(Start cutting path id: path4261-7)
(Change tool to Cylindrical cutter)

G00 Z5.000000
G00 X157.058079 Y175.167309

G01 Z-0.125000 F1000.0(Penetrate)
G01 X169.445035 Y175.167309 Z-0.125000 F1000.000000
G00 Z5.000000

(End cutting path id: path4261-7)


(Start cutting path id: path4261-2)
(Change tool to Cylindrical cutter)

G00 Z5.000000
G00 X103.027046 Y174.965724

G01 Z-0.125000 F1000.0(Penetrate)
G01 X131.650371 Y174.965724 Z-0.125000 F1000.000000
G00 Z5.000000

(End cutting path id: path4261-2)


(Start cutting path id: path4261-8)
(Change tool to Cylindrical cutter)

G00 Z5.000000
G00 X156.477508 Y171.175883

G01 Z-0.125000 F1000.0(Penetrate)
G01 X169.485353 Y171.175883 Z-0.125000 F1000.000000
G00 Z5.000000

(End cutting path id: path4261-8)


(Start cutting path id: path4261)
(Change tool to Cylindrical cutter)

G00 Z5.000000
G00 X102.389531 Y171.135564

G01 Z-0.125000 F1000.0(Penetrate)
G01 X132.965295 Y171.135564 Z-0.125000 F1000.000000
G00 Z5.000000

(End cutting path id: path4261)


(Start cutting path id: path3329)
(Change tool to Cylindrical cutter)

G00 Z5.000000
G00 X108.128723 Y144.499835

G01 Z-0.125000 F1000.0(Penetrate)
G01 X163.472504 Y144.499835 Z-0.125000 F1000.000000
G03 X168.033855 Y146.514261 Z-0.125000 I0.000000 J6.171441
G03 X170.048282 Y151.715213 Z-0.125000 I-5.706827 J5.200951
G01 X170.048282 Y186.894052 Z-0.125000
G03 X168.405616 Y191.135172 Z-0.125000 I-6.296304 J0.000000
G03 X164.686060 Y192.777838 Z-0.125000 I-3.719556 J-3.389839
G01 X107.451390 Y192.777838 Z-0.125000
G03 X103.712257 Y191.126526 Z-0.125000 I0.000000 J-5.058993
G03 X102.060946 Y186.863086 Z-0.125000 I4.678128 J-4.263440
G01 X102.060946 Y151.188769 Z-0.125000
G03 X103.916403 Y146.370057 Z-0.125000 I7.184944 J-0.000000
G03 X108.128723 Y144.499835 Z-0.125000 I4.212321 J3.808615
G01 X108.128723 Y144.499835 Z-0.125000
G00 Z5.000000

(End cutting path id: path3329)


(Start cutting path id: path3491)
(Change tool to Cylindrical cutter)

G00 Z5.000000
G00 X144.778497 Y159.863826

G01 Z-0.125000 F1000.0(Penetrate)
G01 X142.379608 Y162.629604 Z-0.125000 F1000.000000
G01 X142.182052 Y162.855382 Z-0.125000
G01 X141.899830 Y162.911826 Z-0.125000
G01 X137.102052 Y164.012493 Z-0.125000
G03 X136.351635 Y163.887488 Z-0.125000 I-0.215280 J-1.022578
G03 X135.916719 Y163.278715 Z-0.125000 I0.477474 J-0.800856
G03 X136.041723 Y162.528298 Z-0.125000 I1.022578 J-0.215280
G03 X136.650497 Y162.093382 Z-0.125000 I0.800856 J0.477474
G01 X136.706941 Y162.093382 Z-0.125000
G01 X141.561163 Y161.331382 Z-0.125000
G01 X141.081385 Y161.613604 Z-0.125000
G01 X143.226274 Y158.650271 Z-0.125000
G03 X143.864868 Y158.251990 Z-0.125000 I0.776408 J0.533780
G03 X144.609163 Y158.424493 Z-0.125000 I0.152732 J1.032958
G03 X145.007444 Y159.063087 Z-0.125000 I-0.533780 J0.776408
G03 X144.834941 Y159.807382 Z-0.125000 I-1.032958 J0.152732
G01 X144.778497 Y159.863826 Z-0.125000
G01 X144.778497 Y159.863826 Z-0.125000
G00 Z5.000000

(End cutting path id: path3491)


(Start cutting path id: path3487)
(Change tool to Cylindrical cutter)

G00 Z5.000000
G00 X136.340052 Y163.673826

G01 Z-0.125000 F1000.0(Penetrate)
G02 X136.409658 Y164.595126 Z-0.125000 I2.034374 J0.309579 F1000.000000
G02 X137.073830 Y165.254271 Z-0.125000 I0.953911 J-0.296996
G02 X138.548450 Y165.316133 Z-0.125000 I0.857290 J-2.829057
G02 X143.593163 Y164.153604 Z-0.125000 I-33.556391 J-157.142502
G01 X146.500052 Y160.230715 Z-0.125000
G02 X148.370838 Y161.305708 Z-0.125000 I14.587198 J-23.220438
G02 X149.068274 Y161.162048 Z-0.125000 I0.260856 J-0.498381
G00 Z5.000000

(End cutting path id: path3487)


(Start cutting path id: path3485)
(Change tool to Cylindrical cutter)

G00 Z5.000000
G00 X141.053163 Y157.577826

G01 Z-0.125000 F1000.0(Penetrate)
G03 X141.240660 Y158.463153 Z-0.125000 I-5.408615 J1.607967 F1000.000000
G03 X141.109608 Y158.960715 Z-0.125000 I-0.677771 J0.087522
G03 X139.609703 Y160.583266 Z-0.125000 I-7.253238 J-5.200435
G03 X136.960941 Y162.629604 Z-0.125000 I-25.236190 J-29.928074
G01 X135.182941 Y162.234493 Z-0.125000
G00 Z5.000000

(End cutting path id: path3485)


(Start cutting path id: path3483)
(Change tool to Cylindrical cutter)

G00 Z5.000000
G00 X138.428497 Y146.655826

G01 Z-0.125000 F1000.0(Penetrate)
G02 X135.102977 Y150.736026 Z-0.125000 I4520.499322 J3687.775761 F1000.000000
G02 X134.731385 Y151.227826 Z-0.125000 I6.579131 J5.357307
G02 X134.143877 Y153.280821 Z-0.125000 I2.683626 J1.878538
G02 X135.098274 Y157.690715 Z-0.125000 I14.153101 J-0.754816
G03 X134.413108 Y158.553796 Z-0.125000 I-0.593591 J0.232275
G02 X134.054052 Y158.932493 Z-0.125000 I-0.045883 J0.316062
G02 X134.203898 Y159.410654 Z-0.125000 I1.995740 J-0.362862
G02 X135.041830 Y161.218493 Z-0.125000 I139.330274 J-63.481408
G02 X138.116351 Y158.575990 Z-0.125000 I-44.732118 J-55.155136
G02 X138.654274 Y157.408493 Z-0.125000 I-1.109746 J-1.218987
G00 Z5.000000

(End cutting path id: path3483)


(Start cutting path id: path3481)
(Change tool to Cylindrical cutter)

G00 Z5.000000
G00 X144.806719 Y150.437604

G01 Z-0.125000 F1000.0(Penetrate)
G02 X144.178255 Y151.614914 Z-0.125000 I10.751413 J6.495646 F1000.000000
G02 X144.185830 Y152.187382 Z-0.125000 I0.595708 J0.278401
G02 X145.932952 Y154.179801 Z-0.125000 I4.675762 J-2.337881
G03 X147.092719 Y156.364271 Z-0.125000 I-1.477386 J2.184469
G03 X147.002554 Y157.508428 Z-0.125000 I-7.304554 J-0.000000
G02 X148.616719 Y160.371826 Z-0.125000 I2.611969 J0.414242
G00 Z5.000000

(End cutting path id: path3481)


(Start cutting path id: path3479)
(Change tool to Cylindrical cutter)

G00 Z5.000000
G00 X148.136941 Y145.922048

G01 Z-0.125000 F1000.0(Penetrate)
G03 X146.362793 Y149.505998 Z-0.125000 I-171.471689 J-82.651821 F1000.000000
G03 X145.794497 Y150.014271 Z-0.125000 I-0.937567 J-0.476446
G03 X144.984832 Y149.894695 Z-0.125000 I-0.275384 J-0.936305
G03 X139.275163 Y146.119604 Z-0.125000 I383.220429 J-585.810342
G00 Z5.000000

(End cutting path id: path3479)


(Start cutting path id: path3477)
(Change tool to Cylindrical cutter)

G00 Z5.000000
G00 X151.890497 Y145.498715

G01 Z-0.125000 F1000.0(Penetrate)
G02 X152.880308 Y146.903013 Z-0.125000 I2.483682 J-0.699629 F1000.000000
G02 X155.136052 Y147.728270 Z-0.125000 I2.638120 J-3.715455
G00 Z5.000000

(End cutting path id: path3477)


(Start cutting path id: path3475)
(Change tool to Cylindrical cutter)

G00 Z5.000000
G00 X152.511386 Y148.236270

G01 Z-0.125000 F1000.0(Penetrate)
G02 X153.615751 Y149.471595 Z-0.125000 I2.876829 J-1.460544 F1000.000000
G02 X155.474719 Y149.986048 Z-0.125000 I1.728021 J-2.628273
G00 Z5.000000

(End cutting path id: path3475)


(Start cutting path id: path3473)
(Change tool to Cylindrical cutter)

G00 Z5.000000
G00 X153.245163 Y151.227826

G01 Z-0.125000 F1000.0(Penetrate)
G02 X156.943440 Y153.144106 Z-0.125000 I20.085416 J-34.236504 F1000.000000
G02 X158.776719 Y153.175159 Z-0.125000 I0.952496 J-2.101367
G00 Z5.000000

(End cutting path id: path3473)


(Start cutting path id: path3471)
(Change tool to Cylindrical cutter)

G00 Z5.000000
G00 X156.518941 Y155.178937

G01 Z-0.125000 F1000.0(Penetrate)
G03 X153.612599 Y153.349877 Z-0.125000 I15.489055 J-27.835404 F1000.000000
G03 X152.596052 Y151.989826 Z-0.125000 I1.590743 J-2.248899
G03 X152.088612 Y150.219467 Z-0.125000 I17.648059 J-6.016384
G03 X151.128497 Y145.978493 Z-0.125000 I298.037101 J-69.701903
G00 Z5.000000

(End cutting path id: path3471)


(Start cutting path id: path3469)
(Change tool to Cylindrical cutter)

G00 Z5.000000
G00 X153.132274 Y164.520493

G01 Z-0.125000 F1000.0(Penetrate)
G03 X154.782550 Y162.217421 Z-0.125000 I105.279250 J73.695475 F1000.000000
G03 X155.277163 Y161.839382 Z-0.125000 I0.891465 J0.653775
G02 X155.596645 Y161.644880 Z-0.125000 I-0.375626 J-0.976627
G02 X159.478747 Y158.114048 Z-0.125000 I-151.734490 J-170.729575
G02 X163.240807 Y154.525265 Z-0.125000 I-144.055375 J-154.777054
G02 X163.405163 Y154.134715 Z-0.125000 I-0.381843 J-0.390551
G03 X163.430251 Y153.668568 Z-0.125000 I4.343218 J0.000000
G02 X163.627413 Y149.047659 Z-0.125000 I-35.455436 J-3.827453
G02 X163.145121 Y145.406792 Z-0.125000 I-16.807522 J0.374055
G02 X161.881163 Y144.510937 Z-0.125000 I-1.149894 J0.282798
G00 Z5.000000

(End cutting path id: path3469)


(Start cutting path id: path3467)
(Change tool to Cylindrical cutter)

G00 Z5.000000
G00 X116.471608 Y147.079159

G01 Z-0.125000 F1000.0(Penetrate)
G02 X115.929172 Y146.713571 Z-0.125000 I-0.474340 J0.118585 F1000.000000
G02 X112.548719 Y148.264493 Z-0.125000 I0.904474 J6.430977
G00 Z5.000000

(End cutting path id: path3467)


(Start cutting path id: path3465)
(Change tool to Cylindrical cutter)

G00 Z5.000000
G00 X118.277830 Y146.599382

G01 Z-0.125000 F1000.0(Penetrate)
G02 X114.763434 Y149.109407 Z-0.125000 I137.911430 J196.811103 F1000.000000
G02 X114.100941 Y149.844937 Z-0.125000 I1.407778 J1.934108
G00 Z5.000000

(End cutting path id: path3465)


(Start cutting path id: path3463)
(Change tool to Cylindrical cutter)

G00 Z5.000000
G00 X116.556274 Y149.562715

G01 Z-0.125000 F1000.0(Penetrate)
G02 X114.514074 Y153.450098 Z-0.125000 I104.738774 J57.503640 F1000.000000
G02 X114.100941 Y154.924937 Z-0.125000 I3.582463 J1.798806
G00 Z5.000000

(End cutting path id: path3463)


(Start cutting path id: path3461)
(Change tool to Cylindrical cutter)

G00 Z5.000000
G00 X119.773608 Y146.204270

G01 Z-0.125000 F1000.0(Penetrate)
G02 X117.722283 Y148.248606 Z-0.125000 I9.686572 J11.771024 F1000.000000
G02 X117.148941 Y149.986048 Z-0.125000 I1.931798 J1.600798
G02 X118.056611 Y154.095176 Z-0.125000 I12.878403 J-0.689914
G02 X120.168719 Y156.025604 Z-0.125000 I3.059159 J-1.226411
G00 Z5.000000

(End cutting path id: path3461)


(Start cutting path id: path3459)
(Change tool to Cylindrical cutter)

G00 Z5.000000
G00 X162.389163 Y144.510937

G01 Z-0.125000 F1000.0(Penetrate)
G01 X110.347385 Y145.301159 Z-0.125000 F1000.000000
G02 X109.284378 Y145.817610 Z-0.125000 I0.000000 J1.352216
G02 X109.077385 Y146.938048 Z-0.125000 I0.963183 J0.757280
G02 X112.797869 Y158.769954 Z-0.125000 I332.132308 J-97.936450
G02 X117.572274 Y164.464048 Z-0.125000 I9.615742 J-3.213965
G02 X124.906294 Y166.788493 Z-0.125000 I9.846296 J-18.334482
G02 X134.618497 Y167.088715 Z-0.125000 I6.517435 J-53.594115
G00 Z5.000000

(End cutting path id: path3459)


(Start cutting path id: line3456)
(Change tool to Cylindrical cutter)

G00 Z5.000000
G00 X149.548052 Y173.523379

G01 Z-0.125000 F1000.0(Penetrate)
G01 X149.181163 Y175.019160 Z-0.125000 F1000.000000
G00 Z5.000000

(End cutting path id: line3456)


(Start cutting path id: path3454)
(Change tool to Cylindrical cutter)

G00 Z5.000000
G00 X151.326052 Y174.228937

G01 Z-0.125000 F1000.0(Penetrate)
G03 X151.225784 Y174.564483 Z-0.125000 I-0.182969 J0.128079 F1000.000000
G03 X150.676941 Y174.765160 Z-0.125000 I-3.759186 J-9.430350
G03 X150.163349 Y174.827119 Z-0.125000 I-0.408307 J-1.224921
G03 X148.729608 Y174.680493 Z-0.125000 I2.897439 J-35.414803
G00 Z5.000000

(End cutting path id: path3454)


(Start cutting path id: line3452)
(Change tool to Cylindrical cutter)

G00 Z5.000000
G00 X140.742722 Y174.087823

G01 Z-0.125000 F1000.0(Penetrate)
G01 X141.081383 Y175.075601 Z-0.125000 F1000.000000
G00 Z5.000000

(End cutting path id: line3452)


(Start cutting path id: path3450)
(Change tool to Cylindrical cutter)

G00 Z5.000000
G00 X142.661830 Y173.805604

G01 Z-0.125000 F1000.0(Penetrate)
G03 X142.297349 Y174.627036 Z-0.125000 I-6.800505 J-2.525902 F1000.000000
G03 X141.956274 Y174.962715 Z-0.125000 I-0.687765 J-0.357702
G03 X140.904431 Y175.332158 Z-0.125000 I-1.985667 J-3.971334
G03 X140.150052 Y175.329604 Z-0.125000 I-0.371350 J-1.726181
G03 X139.765461 Y175.213045 Z-0.125000 I0.577087 J-2.596890
G03 X138.484941 Y174.708715 Z-0.125000 I46.804955 J-120.718017
G00 Z5.000000

(End cutting path id: path3450)


(Start cutting path id: path3448)
(Change tool to Cylindrical cutter)

G00 Z5.000000
G00 X144.411608 Y175.414271

G01 Z-0.125000 F1000.0(Penetrate)
G03 X143.270925 Y176.813200 Z-0.125000 I-39.231863 J-30.825035 F1000.000000
G03 X142.859385 Y177.051160 Z-0.125000 I-0.537475 J-0.454688
G02 X141.852537 Y177.457423 Z-0.125000 I0.480121 J2.640667
G03 X139.303385 Y177.502715 Z-0.125000 I-1.309952 J-1.968407
G00 Z5.000000

(End cutting path id: path3448)


(Start cutting path id: path3446)
(Change tool to Cylindrical cutter)

G00 Z5.000000
G00 X147.346719 Y165.282493

G01 Z-0.125000 F1000.0(Penetrate)
G02 X143.694961 Y164.816066 Z-0.125000 I-2.698056 J6.595249 F1000.000000
G02 X140.883830 Y166.326715 Z-0.125000 I0.608070 J4.502450
G00 Z5.000000

(End cutting path id: path3446)


(Start cutting path id: path3444)
(Change tool to Cylindrical cutter)

G00 Z5.000000
G00 X144.637385 Y168.104715

G01 Z-0.125000 F1000.0(Penetrate)
G02 X143.302904 Y168.433575 Z-0.125000 I1.262193 J7.993887 F1000.000000
G02 X142.605385 Y168.951382 Z-0.125000 I0.454078 J1.340376
G00 Z5.000000

(End cutting path id: path3444)


(Start cutting path id: path3442)
(Change tool to Cylindrical cutter)

G00 Z5.000000
G00 X147.149163 Y169.148937

G01 Z-0.125000 F1000.0(Penetrate)
G02 X146.396891 Y168.485570 Z-0.125000 I-5.657538 J5.657538 F1000.000000
G02 X145.738052 Y168.104715 Z-0.125000 I-1.722847 J2.220053
G00 Z5.000000

(End cutting path id: path3442)


(Start cutting path id: path3440)
(Change tool to Cylindrical cutter)

G00 Z5.000000
G00 X146.500052 Y169.910937

G01 Z-0.125000 F1000.0(Penetrate)
G02 X146.286854 Y173.660884 Z-0.125000 I107.667611 J8.002322 F1000.000000
G02 X146.669385 Y174.398271 Z-0.125000 I0.838283 J0.033043
G03 X148.473067 Y175.799899 Z-0.125000 I-7.197578 J11.123530
G02 X151.156719 Y175.837604 Z-0.125000 I1.362770 J-1.471874
G03 X151.865382 Y175.292513 Z-0.125000 I4.663418 J5.329621
G03 X152.624274 Y174.849826 Z-0.125000 I3.810297 J5.660121
G00 Z5.000000

(End cutting path id: path3440)


(Start cutting path id: path3438)
(Change tool to Cylindrical cutter)

G00 Z5.000000
G00 X134.872497 Y166.721826

G01 Z-0.125000 F1000.0(Penetrate)
G03 X134.435667 Y163.172653 Z-0.125000 I194.252982 J-25.709954 F1000.000000
G03 X134.618497 Y162.601382 Z-0.125000 I0.725783 J-0.082613
G00 Z5.000000

(End cutting path id: path3438)


(Start cutting path id: path3436)
(Change tool to Cylindrical cutter)

G00 Z5.000000
G00 X151.777608 Y162.883604

G01 Z-0.125000 F1000.0(Penetrate)
G02 X151.100421 Y161.344265 Z-0.125000 I-44.667550 J18.731553 F1000.000000
G02 X150.676941 Y160.597604 Z-0.125000 I-4.639105 J2.137714
G02 X150.062423 Y159.890638 Z-0.125000 I-3.353978 J2.294827
G02 X148.221608 Y158.255159 Z-0.125000 I-62.224514 J68.183173
G00 Z5.000000

(End cutting path id: path3436)


(Start cutting path id: path3434)
(Change tool to Cylindrical cutter)

G00 Z5.000000
G00 X156.377830 Y175.837604

G01 Z-0.125000 F1000.0(Penetrate)
G02 X156.886139 Y174.094380 Z-0.125000 I-4.097639 J-2.140558 F1000.000000
G02 X156.547163 Y172.253382 Z-0.125000 I-3.519735 J-0.303631
G02 X155.723533 Y170.647929 Z-0.125000 I-77.877037 J38.938519
G02 X154.938497 Y169.205382 Z-0.125000 I-51.876018 J27.296129
G03 X154.053895 Y169.060829 Z-0.125000 I0.180681 J-3.884651
G03 X153.696719 Y168.612715 Z-0.125000 I0.135013 J-0.474018
G02 X153.551159 Y167.770745 Z-0.125000 I-6.412102 J0.674958
G02 X152.765386 Y164.576937 Z-0.125000 I-427.406406 J103.461351
G01 X148.842497 Y161.839382 Z-0.125000
G00 Z5.000000

(End cutting path id: path3434)


(Start cutting path id: path3432)
(Change tool to Cylindrical cutter)

G00 Z5.000000
G00 X132.840497 Y179.929826

G01 Z-0.125000 F1000.0(Penetrate)
G03 X132.365824 Y177.530806 Z-0.125000 I36.967507 J-8.560896 F1000.000000
G03 X132.276052 Y176.006937 Z-0.125000 I7.236225 J-1.190869
G03 X132.963148 Y171.613505 Z-0.125000 I20.285760 J0.922080
G03 X134.054052 Y170.672937 Z-0.125000 I1.241162 J0.336626
G02 X134.524265 Y170.559424 Z-0.125000 I-0.236518 J-2.010400
G02 X135.154719 Y169.318271 Z-0.125000 I-0.358765 J-0.962936
G03 X135.095539 Y167.497221 Z-0.125000 I3.664229 J-1.030564
G03 X135.775608 Y165.988048 Z-0.125000 I3.809193 J0.808698
G00 Z5.000000

(End cutting path id: path3432)


(Start cutting path id: path3430)
(Change tool to Cylindrical cutter)

G00 Z5.000000
G00 X147.149163 Y190.372049

G01 Z-0.125000 F1000.0(Penetrate)
G03 X142.304068 Y189.781819 Z-0.125000 I7.530215 J-81.995671 F1000.000000
G03 X140.799163 Y188.989160 Z-0.125000 I0.389977 J-2.565290
G03 X140.010333 Y188.116169 Z-0.125000 I23.386080 J-21.924450
G03 X139.331608 Y187.295826 Z-0.125000 I15.909386 J-13.853859
G03 X137.782131 Y187.613384 Z-0.125000 I-2.399989 J-7.771392
G03 X136.932719 Y187.239382 Z-0.125000 I-0.097741 J-0.929585
G02 X135.476252 Y186.003426 Z-0.125000 I-3.360334 J2.483725
G03 X134.900719 Y184.953382 Z-0.125000 I0.485719 J-0.948973
G02 X134.269165 Y183.459433 Z-0.125000 I-1.699809 J-0.161887
G03 X133.658941 Y181.510271 Z-0.125000 I1.145867 J-1.428839
G02 X133.895628 Y180.042238 Z-0.125000 I-6.972879 J-1.877314
G03 X134.336274 Y177.276937 Z-0.125000 I13.821084 J0.784611
G00 Z5.000000

(End cutting path id: path3430)


(Start cutting path id: path3428)
(Change tool to Cylindrical cutter)

G00 Z5.000000
G00 X147.967608 Y190.372049

G01 Z-0.125000 F1000.0(Penetrate)
G02 X149.022025 Y189.926057 Z-0.125000 I-3.074767 J-8.738812 F1000.000000
G02 X149.124719 Y189.412493 Z-0.125000 I-0.147673 J-0.296579
G03 X149.441889 Y188.537495 Z-0.125000 I0.383395 J-0.356010
G02 X151.692941 Y187.126493 Z-0.125000 I-0.400730 J-3.140425
G03 X152.291973 Y186.378505 Z-0.125000 I4.128632 J2.692586
G03 X153.414497 Y185.292048 Z-0.125000 I19.225235 J18.740323
G02 X155.219016 Y184.569453 Z-0.125000 I-1.905196 J-7.372281
G02 X155.869830 Y183.401160 Z-0.125000 I-0.619551 J-1.110549
G03 X156.590688 Y181.664702 Z-0.125000 I2.209912 J-0.100451
G02 X156.744719 Y180.748271 Z-0.125000 I-0.506291 J-0.556256
G03 X156.133323 Y178.889310 Z-0.125000 I4.756215 J-2.594299
G02 X155.277163 Y175.160271 Z-0.125000 I-21.197274 J2.903932
G00 Z5.000000

(End cutting path id: path3428)


(Start cutting path id: path3426)
(Change tool to Cylindrical cutter)

G00 Z5.000000
G00 X135.098274 Y171.547826

G01 Z-0.125000 F1000.0(Penetrate)
G02 X136.081687 Y179.992510 Z-0.125000 I171.128820 J-15.648948 F1000.000000
G02 X137.243163 Y182.864937 Z-0.125000 I6.359862 J-0.900595
G02 X139.058955 Y183.748109 Z-0.125000 I1.714468 J-1.216720
G02 X140.883830 Y183.203604 Z-0.125000 I-0.191687 J-3.972661
G02 X142.167968 Y183.276359 Z-0.125000 I0.964043 J-5.646535
G02 X143.706052 Y183.090715 Z-0.125000 I-0.674623 J-12.053803
G02 X145.350334 Y182.280659 Z-0.125000 I-0.622065 J-3.336529
G02 X146.782274 Y180.607160 Z-0.125000 I-5.593425 J-6.235424
G03 X147.988168 Y181.030280 Z-0.125000 I-8.716048 J26.770718
G03 X149.181163 Y181.510271 Z-0.125000 I-10.130677 J26.901893
G02 X150.680734 Y181.630652 Z-0.125000 I0.933669 J-2.230433
G02 X152.680719 Y180.917604 Z-0.125000 I-2.343010 J-9.733115
G02 X154.053438 Y178.205600 Z-0.125000 I-130.362782 J-67.688368
G02 X154.091830 Y177.643826 Z-0.125000 I-0.664164 J-0.327588
G03 X153.971625 Y177.026295 Z-0.125000 I2.310837 J-0.770279
G03 X153.668497 Y172.055826 Z-0.125000 I1350.936392 J-84.882484
G00 Z5.000000

(End cutting path id: path3426)


(Footer)
M5
G00 X0.0000 Y0.0000
M2
(Using default footer. To add your own footer create file "footer" in the output dir.)
(end)
%