%
(Header)
(Generated by gcodetools from Inkscape.)
(Using default header. To add your own header create file "header" in the output dir.)
M3
(Header end.)
G21 (All units in mm)

(Start cutting path id: path9151)
(Change tool to Cylindrical cutter)

G00 Z5.000000
G00 X41.319097 Y204.757432

G01 Z-0.125000 F1000.0(Penetrate)
G03 X35.824927 Y202.481672 Z-0.125000 I0.000000 J-7.769931 F1000.000000
G03 X33.549167 Y196.987501 Z-0.125000 I5.494171 J-5.494171
G01 X33.549167 Y141.389723 Z-0.125000
G03 X35.824927 Y135.895552 Z-0.125000 I7.769931 J-0.000000
G03 X41.319097 Y133.619792 Z-0.125000 I5.494171 J5.494171
G01 X72.681042 Y133.619792 Z-0.125000
G03 X78.175213 Y135.895552 Z-0.125000 I-0.000000 J7.769931
G03 X80.450973 Y141.389723 Z-0.125000 I-5.494171 J5.494171
G01 X80.450973 Y196.987501 Z-0.125000
G03 X78.175213 Y202.481672 Z-0.125000 I-7.769931 J-0.000000
G03 X72.681042 Y204.757432 Z-0.125000 I-5.494171 J-5.494171
G01 X41.319097 Y204.757432 Z-0.125000
G01 X41.319097 Y204.757432 Z-0.125000
G00 Z5.000000

(End cutting path id: path9151)


(Start cutting path id: path9149)
(Change tool to Cylindrical cutter)

G00 Z5.000000
G00 X56.947153 Y181.359445

G01 Z-0.125000 F1000.0(Penetrate)
G01 X56.947153 Y157.017779 Z-0.125000 F1000.000000
G01 X57.052986 Y157.017779 Z-0.125000
G01 X57.052986 Y181.359445 Z-0.125000
G01 X56.947153 Y181.359445 Z-0.125000
G01 X56.947153 Y181.359445 Z-0.125000
G00 Z5.000000

(End cutting path id: path9149)


(Start cutting path id: path9147)
(Change tool to Cylindrical cutter)

G00 Z5.000000
G00 X55.350834 Y182.955765

G01 Z-0.125000 F1000.0(Penetrate)
G01 X55.350834 Y155.421459 Z-0.125000 F1000.000000
G01 X58.649306 Y155.421459 Z-0.125000
G01 X58.649306 Y182.955765 Z-0.125000
G01 X55.350834 Y182.955765 Z-0.125000
G01 X55.350834 Y182.955765 Z-0.125000
G00 Z5.000000

(End cutting path id: path9147)


(Start cutting path id: path9145)
(Change tool to Cylindrical cutter)

G00 Z5.000000
G00 X53.745695 Y184.560904

G01 Z-0.125000 F1000.0(Penetrate)
G01 X53.745695 Y153.816320 Z-0.125000 F1000.000000
G01 X60.254445 Y153.816320 Z-0.125000
G01 X60.254445 Y184.560904 Z-0.125000
G01 X53.745695 Y184.560904 Z-0.125000
G01 X53.745695 Y184.560904 Z-0.125000
G00 Z5.000000

(End cutting path id: path9145)


(Start cutting path id: path9143)
(Change tool to Cylindrical cutter)

G00 Z5.000000
G00 X52.149375 Y186.157223

G01 Z-0.125000 F1000.0(Penetrate)
G01 X52.149375 Y152.220001 Z-0.125000 F1000.000000
G01 X61.850764 Y152.220001 Z-0.125000
G01 X61.850764 Y186.157223 Z-0.125000
G01 X52.149375 Y186.157223 Z-0.125000
G01 X52.149375 Y186.157223 Z-0.125000
G00 Z5.000000

(End cutting path id: path9143)


(Start cutting path id: path9141)
(Change tool to Cylindrical cutter)

G00 Z5.000000
G00 X50.553056 Y187.753543

G01 Z-0.125000 F1000.0(Penetrate)
G01 X50.553056 Y150.623681 Z-0.125000 F1000.000000
G01 X63.447084 Y150.623681 Z-0.125000
G01 X63.447084 Y187.753543 Z-0.125000
G01 X50.553056 Y187.753543 Z-0.125000
G01 X50.553056 Y187.753543 Z-0.125000
G00 Z5.000000

(End cutting path id: path9141)


(Start cutting path id: path9139)
(Change tool to Cylindrical cutter)

G00 Z5.000000
G00 X48.947917 Y189.358682

G01 Z-0.125000 F1000.0(Penetrate)
G01 X48.947917 Y149.018543 Z-0.125000 F1000.000000
G01 X65.052223 Y149.018543 Z-0.125000
G01 X65.052223 Y189.358682 Z-0.125000
G01 X48.947917 Y189.358682 Z-0.125000
G01 X48.947917 Y189.358682 Z-0.125000
G00 Z5.000000

(End cutting path id: path9139)


(Start cutting path id: path9137)
(Change tool to Cylindrical cutter)

G00 Z5.000000
G00 X47.351597 Y190.955001

G01 Z-0.125000 F1000.0(Penetrate)
G01 X47.351597 Y147.422223 Z-0.125000 F1000.000000
G01 X66.648542 Y147.422223 Z-0.125000
G01 X66.648542 Y190.955001 Z-0.125000
G01 X47.351597 Y190.955001 Z-0.125000
G01 X47.351597 Y190.955001 Z-0.125000
G00 Z5.000000

(End cutting path id: path9137)


(Start cutting path id: path9135)
(Change tool to Cylindrical cutter)

G00 Z5.000000
G00 X45.746459 Y192.560140

G01 Z-0.125000 F1000.0(Penetrate)
G01 X45.746459 Y145.817084 Z-0.125000 F1000.000000
G01 X68.253681 Y145.817084 Z-0.125000
G01 X68.253681 Y192.560140 Z-0.125000
G01 X45.746459 Y192.560140 Z-0.125000
G01 X45.746459 Y192.560140 Z-0.125000
G00 Z5.000000

(End cutting path id: path9135)


(Start cutting path id: path9133)
(Change tool to Cylindrical cutter)

G00 Z5.000000
G00 X44.150139 Y194.156459

G01 Z-0.125000 F1000.0(Penetrate)
G01 X44.150139 Y144.220765 Z-0.125000 F1000.000000
G01 X69.850000 Y144.220765 Z-0.125000
G01 X69.850000 Y194.156459 Z-0.125000
G01 X44.150139 Y194.156459 Z-0.125000
G01 X44.150139 Y194.156459 Z-0.125000
G00 Z5.000000

(End cutting path id: path9133)


(Start cutting path id: path9131)
(Change tool to Cylindrical cutter)

G00 Z5.000000
G00 X42.545000 Y195.761598

G01 Z-0.125000 F1000.0(Penetrate)
G01 X42.545000 Y142.615626 Z-0.125000 F1000.000000
G01 X71.455139 Y142.615626 Z-0.125000
G01 X71.455139 Y195.761598 Z-0.125000
G01 X42.545000 Y195.761598 Z-0.125000
G01 X42.545000 Y195.761598 Z-0.125000
G00 Z5.000000

(End cutting path id: path9131)


(Start cutting path id: path9129)
(Change tool to Cylindrical cutter)

G00 Z5.000000
G00 X41.319097 Y197.357918

G01 Z-0.125000 F1000.0(Penetrate)
G03 X41.057173 Y197.249425 Z-0.125000 I-0.000000 J-0.370417 F1000.000000
G03 X40.948681 Y196.987501 Z-0.125000 I0.261924 J-0.261924
G01 X40.948681 Y141.389723 Z-0.125000
G03 X41.057173 Y141.127799 Z-0.125000 I0.370417 J0.000000
G03 X41.319097 Y141.019306 Z-0.125000 I0.261924 J0.261924
G01 X72.681042 Y141.019306 Z-0.125000
G03 X72.942966 Y141.127799 Z-0.125000 I0.000000 J0.370417
G03 X73.051459 Y141.389723 Z-0.125000 I-0.261924 J0.261924
G01 X73.051459 Y196.987501 Z-0.125000
G03 X72.942966 Y197.249425 Z-0.125000 I-0.370417 J-0.000000
G03 X72.681042 Y197.357918 Z-0.125000 I-0.261924 J-0.261924
G01 X41.319097 Y197.357918 Z-0.125000
G01 X41.319097 Y197.357918 Z-0.125000
G00 Z5.000000

(End cutting path id: path9129)


(Start cutting path id: path9127)
(Change tool to Cylindrical cutter)

G00 Z5.000000
G00 X41.319097 Y198.954237

G01 Z-0.125000 F1000.0(Penetrate)
G03 X39.928405 Y198.378194 Z-0.125000 I0.000000 J-1.966736 F1000.000000
G03 X39.352361 Y196.987501 Z-0.125000 I1.390692 J-1.390692
G01 X39.352361 Y141.389723 Z-0.125000
G03 X39.928405 Y139.999031 Z-0.125000 I1.966736 J0.000000
G03 X41.319097 Y139.422987 Z-0.125000 I1.390692 J1.390692
G01 X72.681042 Y139.422987 Z-0.125000
G03 X74.071735 Y139.999031 Z-0.125000 I0.000000 J1.966736
G03 X74.647778 Y141.389723 Z-0.125000 I-1.390692 J1.390692
G01 X74.647778 Y196.987501 Z-0.125000
G03 X74.071735 Y198.378194 Z-0.125000 I-1.966736 J0.000000
G03 X72.681042 Y198.954237 Z-0.125000 I-1.390692 J-1.390692
G01 X41.319097 Y198.954237 Z-0.125000
G01 X41.319097 Y198.954237 Z-0.125000
G00 Z5.000000

(End cutting path id: path9127)


(Start cutting path id: path9125)
(Change tool to Cylindrical cutter)

G00 Z5.000000
G00 X41.319097 Y200.559376

G01 Z-0.125000 F1000.0(Penetrate)
G03 X38.793400 Y199.513198 Z-0.125000 I0.000000 J-3.571875 F1000.000000
G03 X37.747222 Y196.987501 Z-0.125000 I2.525697 J-2.525697
G01 X37.747222 Y141.389723 Z-0.125000
G03 X38.793400 Y138.864026 Z-0.125000 I3.571875 J-0.000000
G03 X41.319097 Y137.817848 Z-0.125000 I2.525697 J2.525697
G01 X72.681042 Y137.817848 Z-0.125000
G03 X75.206739 Y138.864026 Z-0.125000 I0.000000 J3.571875
G03 X76.252917 Y141.389723 Z-0.125000 I-2.525697 J2.525697
G01 X76.252917 Y196.987501 Z-0.125000
G03 X75.206739 Y199.513198 Z-0.125000 I-3.571875 J0.000000
G03 X72.681042 Y200.559376 Z-0.125000 I-2.525697 J-2.525697
G01 X41.319097 Y200.559376 Z-0.125000
G01 X41.319097 Y200.559376 Z-0.125000
G00 Z5.000000

(End cutting path id: path9125)


(Start cutting path id: path9123)
(Change tool to Cylindrical cutter)

G00 Z5.000000
G00 X41.319097 Y202.155696

G01 Z-0.125000 F1000.0(Penetrate)
G03 X37.664632 Y200.641966 Z-0.125000 I-0.000000 J-5.168194 F1000.000000
G03 X36.150903 Y196.987501 Z-0.125000 I3.654465 J-3.654465
G01 X36.150903 Y141.389723 Z-0.125000
G03 X37.664632 Y137.735258 Z-0.125000 I5.168194 J-0.000000
G03 X41.319097 Y136.221529 Z-0.125000 I3.654465 J3.654465
G01 X72.681042 Y136.221529 Z-0.125000
G03 X76.335507 Y137.735258 Z-0.125000 I-0.000000 J5.168194
G03 X77.849237 Y141.389723 Z-0.125000 I-3.654465 J3.654465
G01 X77.849237 Y196.987501 Z-0.125000
G03 X76.335507 Y200.641966 Z-0.125000 I-5.168194 J0.000000
G03 X72.681042 Y202.155696 Z-0.125000 I-3.654465 J-3.654465
G01 X41.319097 Y202.155696 Z-0.125000
G01 X41.319097 Y202.155696 Z-0.125000
G00 Z5.000000

(End cutting path id: path9123)


(Start cutting path id: path9121)
(Change tool to Cylindrical cutter)

G00 Z5.000000
G00 X41.319097 Y203.760835

G01 Z-0.125000 F1000.0(Penetrate)
G03 X36.529628 Y201.776971 Z-0.125000 I0.000000 J-6.773333 F1000.000000
G03 X34.545764 Y196.987501 Z-0.125000 I4.789470 J-4.789470
G01 X34.545764 Y141.389723 Z-0.125000
G03 X36.529628 Y136.600253 Z-0.125000 I6.773333 J0.000000
G03 X41.319097 Y134.616390 Z-0.125000 I4.789470 J4.789470
G01 X72.681042 Y134.616390 Z-0.125000
G03 X77.470512 Y136.600253 Z-0.125000 I0.000000 J6.773333
G03 X79.454375 Y141.389723 Z-0.125000 I-4.789470 J4.789470
G01 X79.454375 Y196.987501 Z-0.125000
G03 X77.470512 Y201.776971 Z-0.125000 I-6.773333 J0.000000
G03 X72.681042 Y203.760835 Z-0.125000 I-4.789470 J-4.789470
G01 X41.319097 Y203.760835 Z-0.125000
G01 X41.319097 Y203.760835 Z-0.125000
G00 Z5.000000

(End cutting path id: path9121)


(Start cutting path id: path9117)
(Change tool to Cylindrical cutter)

G00 Z5.000000
G00 X125.562431 Y169.276807

G01 Z-0.125000 F1000.0(Penetrate)
G01 X125.562431 Y167.997987 Z-0.125000 F1000.000000
G01 X146.543890 Y167.997987 Z-0.125000
G01 X146.543890 Y169.276807 Z-0.125000
G01 X125.562431 Y169.276807 Z-0.125000
G01 X125.562431 Y169.276807 Z-0.125000
G00 Z5.000000

(End cutting path id: path9117)


(Start cutting path id: path9115)
(Change tool to Cylindrical cutter)

G00 Z5.000000
G00 X125.456598 Y169.373820

G01 Z-0.125000 F1000.0(Penetrate)
G01 X125.456598 Y167.900973 Z-0.125000 F1000.000000
G01 X146.649723 Y167.900973 Z-0.125000
G01 X146.649723 Y169.373820 Z-0.125000
G01 X125.456598 Y169.373820 Z-0.125000
G01 X125.456598 Y169.373820 Z-0.125000
G00 Z5.000000

(End cutting path id: path9115)


(Start cutting path id: path9113)
(Change tool to Cylindrical cutter)

G00 Z5.000000
G00 X123.860278 Y170.978959

G01 Z-0.125000 F1000.0(Penetrate)
G01 X123.860278 Y166.295834 Z-0.125000 F1000.000000
G01 X148.246043 Y166.295834 Z-0.125000
G01 X148.246043 Y170.978959 Z-0.125000
G01 X123.860278 Y170.978959 Z-0.125000
G01 X123.860278 Y170.978959 Z-0.125000
G00 Z5.000000

(End cutting path id: path9113)


(Start cutting path id: path9111)
(Change tool to Cylindrical cutter)

G00 Z5.000000
G00 X122.263959 Y172.575279

G01 Z-0.125000 F1000.0(Penetrate)
G01 X122.263959 Y164.699515 Z-0.125000 F1000.000000
G01 X149.851181 Y164.699515 Z-0.125000
G01 X149.851181 Y172.575279 Z-0.125000
G01 X122.263959 Y172.575279 Z-0.125000
G01 X122.263959 Y172.575279 Z-0.125000
G00 Z5.000000

(End cutting path id: path9111)


(Start cutting path id: path9109)
(Change tool to Cylindrical cutter)

G00 Z5.000000
G00 X120.658820 Y174.180418

G01 Z-0.125000 F1000.0(Penetrate)
G01 X120.658820 Y163.103195 Z-0.125000 F1000.000000
G01 X151.447501 Y163.103195 Z-0.125000
G01 X151.447501 Y174.180418 Z-0.125000
G01 X120.658820 Y174.180418 Z-0.125000
G01 X120.658820 Y174.180418 Z-0.125000
G00 Z5.000000

(End cutting path id: path9109)


(Start cutting path id: path9107)
(Change tool to Cylindrical cutter)

G00 Z5.000000
G00 X119.062501 Y175.776737

G01 Z-0.125000 F1000.0(Penetrate)
G01 X119.062501 Y161.498056 Z-0.125000 F1000.000000
G01 X153.052640 Y161.498056 Z-0.125000
G01 X153.052640 Y175.776737 Z-0.125000
G01 X119.062501 Y175.776737 Z-0.125000
G01 X119.062501 Y175.776737 Z-0.125000
G00 Z5.000000

(End cutting path id: path9107)


(Start cutting path id: path9105)
(Change tool to Cylindrical cutter)

G00 Z5.000000
G00 X117.457362 Y177.381876

G01 Z-0.125000 F1000.0(Penetrate)
G01 X117.457362 Y159.901737 Z-0.125000 F1000.000000
G01 X154.648959 Y159.901737 Z-0.125000
G01 X154.648959 Y177.381876 Z-0.125000
G01 X117.457362 Y177.381876 Z-0.125000
G01 X117.457362 Y177.381876 Z-0.125000
G00 Z5.000000

(End cutting path id: path9105)


(Start cutting path id: path9103)
(Change tool to Cylindrical cutter)

G00 Z5.000000
G00 X115.861042 Y178.978195

G01 Z-0.125000 F1000.0(Penetrate)
G01 X115.861042 Y158.296598 Z-0.125000 F1000.000000
G01 X156.245279 Y158.296598 Z-0.125000
G01 X156.245279 Y178.978195 Z-0.125000
G01 X115.861042 Y178.978195 Z-0.125000
G01 X115.861042 Y178.978195 Z-0.125000
G00 Z5.000000

(End cutting path id: path9103)


(Start cutting path id: path9101)
(Change tool to Cylindrical cutter)

G00 Z5.000000
G00 X114.264723 Y180.574515

G01 Z-0.125000 F1000.0(Penetrate)
G01 X114.264723 Y156.700279 Z-0.125000 F1000.000000
G01 X157.850418 Y156.700279 Z-0.125000
G01 X157.850418 Y180.574515 Z-0.125000
G01 X114.264723 Y180.574515 Z-0.125000
G01 X114.264723 Y180.574515 Z-0.125000
G00 Z5.000000

(End cutting path id: path9101)


(Start cutting path id: path9099)
(Change tool to Cylindrical cutter)

G00 Z5.000000
G00 X112.659584 Y182.179654

G01 Z-0.125000 F1000.0(Penetrate)
G01 X112.659584 Y155.103959 Z-0.125000 F1000.000000
G01 X159.446737 Y155.103959 Z-0.125000
G01 X159.446737 Y182.179654 Z-0.125000
G01 X112.659584 Y182.179654 Z-0.125000
G01 X112.659584 Y182.179654 Z-0.125000
G00 Z5.000000

(End cutting path id: path9099)


(Start cutting path id: path9097)
(Change tool to Cylindrical cutter)

G00 Z5.000000
G00 X111.063265 Y183.775973

G01 Z-0.125000 F1000.0(Penetrate)
G01 X111.063265 Y153.498820 Z-0.125000 F1000.000000
G01 X161.051876 Y153.498820 Z-0.125000
G01 X161.051876 Y183.775973 Z-0.125000
G01 X111.063265 Y183.775973 Z-0.125000
G01 X111.063265 Y183.775973 Z-0.125000
G00 Z5.000000

(End cutting path id: path9097)


(Start cutting path id: path9095)
(Change tool to Cylindrical cutter)

G00 Z5.000000
G00 X109.458126 Y185.381112

G01 Z-0.125000 F1000.0(Penetrate)
G01 X109.458126 Y151.902501 Z-0.125000 F1000.000000
G01 X162.648195 Y151.902501 Z-0.125000
G01 X162.648195 Y185.381112 Z-0.125000
G01 X109.458126 Y185.381112 Z-0.125000
G01 X109.458126 Y185.381112 Z-0.125000
G00 Z5.000000

(End cutting path id: path9095)


(Start cutting path id: path9093)
(Change tool to Cylindrical cutter)

G00 Z5.000000
G00 X107.852987 Y186.977432

G01 Z-0.125000 F1000.0(Penetrate)
G03 X107.854730 Y186.957410 Z-0.125000 I0.161837 J0.004006 F1000.000000
G02 X107.861792 Y186.862779 Z-0.125000 I-0.630512 J-0.094631
G01 X107.861792 Y151.188126 Z-0.125000
G03 X108.165943 Y150.385184 Z-0.125000 I1.211936 J0.000000
G02 X108.126375 Y150.297362 Z-0.125000 I-0.039568 J-0.034998
G01 X163.468390 Y150.297362 Z-0.125000
G03 X163.642252 Y150.364129 Z-0.125000 I-0.000000 J0.259756
G03 X164.244501 Y151.717293 Z-0.125000 I-1.219057 J1.353164
G01 X164.244501 Y186.898057 Z-0.125000
G02 X164.256949 Y186.956693 Z-0.125000 I0.144324 J-0.000000
G03 X164.262140 Y186.977432 Z-0.125000 I-0.056695 J0.025209
G01 X107.852973 Y186.977432 Z-0.125000
G01 X107.852987 Y186.977432 Z-0.125000
G00 Z5.000000

(End cutting path id: path9093)


(Start cutting path id: path9091)
(Change tool to Cylindrical cutter)

G00 Z5.000000
G00 X107.447292 Y188.573751

G01 Z-0.125000 F1000.0(Penetrate)
G03 X106.875288 Y188.339499 Z-0.125000 I-0.000000 J-0.815497 F1000.000000
G03 X106.256667 Y186.862779 Z-0.125000 I1.453244 J-1.476721
G01 X106.256667 Y151.188126 Z-0.125000
G03 X107.101845 Y149.129236 Z-0.125000 I2.930362 J-0.000000
G03 X108.126390 Y148.701043 Z-0.125000 I1.024544 J1.011625
G01 X163.468404 Y148.701043 Z-0.125000
G03 X164.866604 Y149.292560 Z-0.125000 I0.000000 J1.948259
G03 X165.849654 Y151.717293 Z-0.125000 I-2.498828 J2.424733
G01 X165.849654 Y186.898057 Z-0.125000
G03 X165.259508 Y188.334106 Z-0.125000 I-2.042302 J-0.000000
G03 X164.685487 Y188.573751 Z-0.125000 I-0.574021 J-0.567654
G01 X107.447292 Y188.573751 Z-0.125000
G01 X107.447292 Y188.573751 Z-0.125000
G00 Z5.000000

(End cutting path id: path9091)


(Start cutting path id: path9089)
(Change tool to Cylindrical cutter)

G00 Z5.000000
G00 X107.447292 Y190.178890

G01 Z-0.125000 F1000.0(Penetrate)
G03 X105.667451 Y189.408185 Z-0.125000 I-0.000000 J-2.440507 F1000.000000
G03 X104.660348 Y186.862779 Z-0.125000 I2.713147 J-2.545406
G01 X104.660348 Y151.188126 Z-0.125000
G03 X105.882670 Y148.074574 Z-0.125000 I4.576649 J0.000000
G03 X108.126390 Y147.095904 Z-0.125000 I2.243720 J2.082664
G01 X163.468404 Y147.095904 Z-0.125000
G03 X166.073395 Y148.229566 Z-0.125000 I-0.000000 J3.559777
G03 X167.445973 Y151.717293 Z-0.125000 I-3.744876 J3.487726
G01 X167.445973 Y186.898057 Z-0.125000
G03 X166.452028 Y189.413115 Z-0.125000 I-3.678998 J-0.000000
G03 X164.685487 Y190.178890 Z-0.125000 I-1.766541 J-1.654699
G01 X107.447292 Y190.178890 Z-0.125000
G01 X107.447292 Y190.178890 Z-0.125000
G00 Z5.000000

(End cutting path id: path9089)


(Start cutting path id: path9087)
(Change tool to Cylindrical cutter)

G00 Z5.000000
G00 X107.447292 Y191.775209

G01 Z-0.125000 F1000.0(Penetrate)
G03 X104.465008 Y190.463578 Z-0.125000 I0.000000 J-4.046258 F1000.000000
G03 X103.064028 Y186.862779 Z-0.125000 I3.926900 J-3.600799
G01 X103.064028 Y151.188126 Z-0.125000
G03 X104.673249 Y147.026788 Z-0.125000 I6.185082 J0.000000
G03 X108.126390 Y145.499584 Z-0.125000 I3.453141 J3.140323
G01 X163.468404 Y145.499584 Z-0.125000
G03 X167.281175 Y147.174379 Z-0.125000 I-0.000000 J5.177400
G03 X169.051112 Y151.717293 Z-0.125000 I-4.945202 J4.542914
G01 X169.051112 Y186.898057 Z-0.125000
G03 X167.655091 Y190.473407 Z-0.125000 I-5.276426 J0.000000
G03 X164.685487 Y191.775209 Z-0.125000 I-2.969604 J-2.736151
G01 X107.447292 Y191.775209 Z-0.125000
G01 X107.447292 Y191.775209 Z-0.125000
G00 Z5.000000

(End cutting path id: path9087)


(Start cutting path id: path9083)
(Change tool to Cylindrical cutter)

G00 Z5.000000
G00 X26.520705 Y115.650723

G01 Z-0.125000 F1000.0(Penetrate)
G03 X22.709085 Y114.071899 Z-0.125000 I-0.000000 J-5.390444 F1000.000000
G03 X21.130260 Y110.260279 Z-0.125000 I3.811620 J-3.811620
G01 X21.130260 Y77.748279 Z-0.125000
G03 X22.904543 Y73.440672 Z-0.125000 I6.116148 J0.000000
G03 X27.198038 Y71.652278 Z-0.125000 I4.293495 J4.259618
G01 X27.198038 Y71.652278 Z-0.125000
G01 X27.198038 Y71.652278 Z-0.125000
G01 X82.541816 Y71.652278 Z-0.125000
G03 X87.191593 Y73.578279 Z-0.125000 I-0.000000 J6.575778
G03 X89.117594 Y78.228056 Z-0.125000 I-4.649777 J4.649777
G01 X89.117594 Y110.288501 Z-0.125000
G03 X87.547035 Y114.080165 Z-0.125000 I-5.362222 J-0.000000
G03 X83.755372 Y115.650723 Z-0.125000 I-3.791664 J-3.791664
G01 X26.520705 Y115.650723 Z-0.125000
G01 X26.520705 Y115.650723 Z-0.125000
G00 Z5.000000

(End cutting path id: path9083)


(Start cutting path id: path9081)
(Change tool to Cylindrical cutter)

G00 Z5.000000
G00 X26.520705 Y115.650723

G01 Z-0.125000 F1000.0(Penetrate)
G03 X22.709085 Y114.071899 Z-0.125000 I-0.000000 J-5.390444 F1000.000000
G03 X21.130260 Y110.260279 Z-0.125000 I3.811620 J-3.811620
G01 X21.130260 Y77.748279 Z-0.125000
G03 X22.904543 Y73.440672 Z-0.125000 I6.116148 J0.000000
G03 X27.198038 Y71.652278 Z-0.125000 I4.293495 J4.259618
G01 X27.198038 Y71.652278 Z-0.125000
G01 X27.198038 Y71.652278 Z-0.125000
G01 X82.541816 Y71.652278 Z-0.125000
G03 X87.191593 Y73.578279 Z-0.125000 I-0.000000 J6.575778
G03 X89.117594 Y78.228056 Z-0.125000 I-4.649777 J4.649777
G01 X89.117594 Y110.288501 Z-0.125000
G03 X87.547035 Y114.080165 Z-0.125000 I-5.362222 J-0.000000
G03 X83.755372 Y115.650723 Z-0.125000 I-3.791664 J-3.791664
G01 X26.520705 Y115.650723 Z-0.125000
G01 X26.520705 Y115.650723 Z-0.125000
G00 Z5.000000

(End cutting path id: path9081)


(Start cutting path id: path9079)
(Change tool to Cylindrical cutter)

G00 Z5.000000
G00 X42.933056 Y93.852917

G01 Z-0.125000 F1000.0(Penetrate)
G01 X42.933056 Y93.456042 Z-0.125000 F1000.000000
G01 X67.318820 Y93.456042 Z-0.125000
G01 X67.318820 Y93.852917 Z-0.125000
G01 X42.933056 Y93.852917 Z-0.125000
G01 X42.933056 Y93.852917 Z-0.125000
G00 Z5.000000

(End cutting path id: path9079)


(Start cutting path id: path9077)
(Change tool to Cylindrical cutter)

G00 Z5.000000
G00 X41.327917 Y95.449237

G01 Z-0.125000 F1000.0(Penetrate)
G01 X41.327917 Y91.850903 Z-0.125000 F1000.000000
G01 X68.915139 Y91.850903 Z-0.125000
G01 X68.915139 Y95.449237 Z-0.125000
G01 X41.327917 Y95.449237 Z-0.125000
G01 X41.327917 Y95.449237 Z-0.125000
G00 Z5.000000

(End cutting path id: path9077)


(Start cutting path id: path9075)
(Change tool to Cylindrical cutter)

G00 Z5.000000
G00 X39.731597 Y97.054376

G01 Z-0.125000 F1000.0(Penetrate)
G01 X39.731597 Y90.254584 Z-0.125000 F1000.000000
G01 X70.520278 Y90.254584 Z-0.125000
G01 X70.520278 Y97.054376 Z-0.125000
G01 X39.731597 Y97.054376 Z-0.125000
G01 X39.731597 Y97.054376 Z-0.125000
G00 Z5.000000

(End cutting path id: path9075)


(Start cutting path id: path9073)
(Change tool to Cylindrical cutter)

G00 Z5.000000
G00 X38.126459 Y98.650695

G01 Z-0.125000 F1000.0(Penetrate)
G01 X38.126459 Y88.649445 Z-0.125000 F1000.000000
G01 X72.116598 Y88.649445 Z-0.125000
G01 X72.116598 Y98.650695 Z-0.125000
G01 X38.126459 Y98.650695 Z-0.125000
G01 X38.126459 Y98.650695 Z-0.125000
G00 Z5.000000

(End cutting path id: path9073)


(Start cutting path id: path9071)
(Change tool to Cylindrical cutter)

G00 Z5.000000
G00 X36.530139 Y100.247014

G01 Z-0.125000 F1000.0(Penetrate)
G01 X36.530139 Y87.053125 Z-0.125000 F1000.000000
G01 X73.721737 Y87.053125 Z-0.125000
G01 X73.721737 Y100.247014 Z-0.125000
G01 X36.530139 Y100.247014 Z-0.125000
G01 X36.530139 Y100.247014 Z-0.125000
G00 Z5.000000

(End cutting path id: path9071)


(Start cutting path id: path9069)
(Change tool to Cylindrical cutter)

G00 Z5.000000
G00 X34.933820 Y101.852153

G01 Z-0.125000 F1000.0(Penetrate)
G01 X34.933820 Y85.447987 Z-0.125000 F1000.000000
G01 X75.318056 Y85.447987 Z-0.125000
G01 X75.318056 Y101.852153 Z-0.125000
G01 X34.933820 Y101.852153 Z-0.125000
G01 X34.933820 Y101.852153 Z-0.125000
G00 Z5.000000

(End cutting path id: path9069)


(Start cutting path id: path9067)
(Change tool to Cylindrical cutter)

G00 Z5.000000
G00 X33.328681 Y103.448473

G01 Z-0.125000 F1000.0(Penetrate)
G01 X33.328681 Y83.851667 Z-0.125000 F1000.000000
G01 X76.914375 Y83.851667 Z-0.125000
G01 X76.914375 Y103.448473 Z-0.125000
G01 X33.328681 Y103.448473 Z-0.125000
G01 X33.328681 Y103.448473 Z-0.125000
G00 Z5.000000

(End cutting path id: path9067)


(Start cutting path id: path9065)
(Change tool to Cylindrical cutter)

G00 Z5.000000
G00 X31.732361 Y105.053612

G01 Z-0.125000 F1000.0(Penetrate)
G01 X31.732361 Y82.255348 Z-0.125000 F1000.000000
G01 X78.519514 Y82.255348 Z-0.125000
G01 X78.519514 Y105.053612 Z-0.125000
G01 X31.732361 Y105.053612 Z-0.125000
G01 X31.732361 Y105.053612 Z-0.125000
G00 Z5.000000

(End cutting path id: path9065)


(Start cutting path id: path9063)
(Change tool to Cylindrical cutter)

G00 Z5.000000
G00 X30.127222 Y106.649931

G01 Z-0.125000 F1000.0(Penetrate)
G01 X30.127222 Y80.650209 Z-0.125000 F1000.000000
G01 X80.115834 Y80.650209 Z-0.125000
G01 X80.115834 Y106.649931 Z-0.125000
G01 X30.127222 Y106.649931 Z-0.125000
G01 X30.127222 Y106.649931 Z-0.125000
G00 Z5.000000

(End cutting path id: path9063)


(Start cutting path id: path9061)
(Change tool to Cylindrical cutter)

G00 Z5.000000
G00 X28.530903 Y108.255070

G01 Z-0.125000 F1000.0(Penetrate)
G01 X28.530903 Y79.053889 Z-0.125000 F1000.000000
G01 X81.720973 Y79.053889 Z-0.125000
G01 X81.720973 Y108.255070 Z-0.125000
G01 X28.530903 Y108.255070 Z-0.125000
G01 X28.530903 Y108.255070 Z-0.125000
G00 Z5.000000

(End cutting path id: path9061)


(Start cutting path id: path9059)
(Change tool to Cylindrical cutter)

G00 Z5.000000
G00 X26.934583 Y109.851390

G01 Z-0.125000 F1000.0(Penetrate)
G01 X26.934583 Y77.748612 Z-0.125000 F1000.000000
G03 X27.025294 Y77.522925 Z-0.125000 I0.326108 J-0.000000
G03 X27.199167 Y77.448750 Z-0.125000 I0.173873 J0.166700
G01 X82.541181 Y77.448750 Z-0.125000
G03 X83.089974 Y77.676068 Z-0.125000 I-0.000000 J0.776111
G03 X83.317292 Y78.224862 Z-0.125000 I-0.548793 J0.548793
G01 X83.317292 Y109.851390 Z-0.125000
G01 X26.934583 Y109.851390 Z-0.125000
G01 X26.934583 Y109.851390 Z-0.125000
G00 Z5.000000

(End cutting path id: path9059)


(Start cutting path id: path9057)
(Change tool to Cylindrical cutter)

G00 Z5.000000
G00 X26.520070 Y111.447709

G01 Z-0.125000 F1000.0(Penetrate)
G03 X25.678171 Y111.098983 Z-0.125000 I0.000000 J-1.190625 F1000.000000
G03 X25.329445 Y110.257084 Z-0.125000 I0.841899 J-0.841900
G01 X25.329445 Y77.748612 Z-0.125000
G03 X25.885295 Y76.399536 Z-0.125000 I1.915059 J0.000000
G03 X27.199167 Y75.852431 Z-0.125000 I1.313872 J1.304076
G01 X82.541181 Y75.852431 Z-0.125000
G03 X84.218743 Y76.547300 Z-0.125000 I-0.000000 J2.372431
G03 X84.913612 Y78.224862 Z-0.125000 I-1.677562 J1.677562
G01 X84.913612 Y110.292362 Z-0.125000
G03 X84.575218 Y111.109316 Z-0.125000 I-1.155347 J0.000000
G03 X83.758264 Y111.447709 Z-0.125000 I-0.816954 J-0.816954
G01 X26.520070 Y111.447709 Z-0.125000
G01 X26.520070 Y111.447709 Z-0.125000
G00 Z5.000000

(End cutting path id: path9057)


(Start cutting path id: path9055)
(Change tool to Cylindrical cutter)

G00 Z5.000000
G00 X26.520070 Y113.052848

G01 Z-0.125000 F1000.0(Penetrate)
G03 X24.548488 Y112.233076 Z-0.125000 I0.000000 J-2.780749 F1000.000000
G03 X23.733125 Y110.257084 Z-0.125000 I1.986678 J-1.975992
G01 X23.733125 Y77.748612 Z-0.125000
G03 X24.752280 Y75.275031 Z-0.125000 I3.511379 J-0.000000
G03 X27.199167 Y74.256112 Z-0.125000 I2.446887 J2.428582
G01 X82.541181 Y74.256112 Z-0.125000
G03 X85.352835 Y75.417617 Z-0.125000 I-0.000000 J3.983834
G03 X86.518751 Y78.224862 Z-0.125000 I-2.796627 J2.807244
G01 X86.518751 Y110.292362 Z-0.125000
G03 X85.710223 Y112.244320 Z-0.125000 I-2.760486 J-0.000000
G03 X83.758264 Y113.052848 Z-0.125000 I-1.951958 J-1.951958
G01 X26.520070 Y113.052848 Z-0.125000
G01 X26.520070 Y113.052848 Z-0.125000
G00 Z5.000000

(End cutting path id: path9055)


(Start cutting path id: path9053)
(Change tool to Cylindrical cutter)

G00 Z5.000000
G00 X26.520070 Y114.649167

G01 Z-0.125000 F1000.0(Penetrate)
G03 X23.414397 Y113.362756 Z-0.125000 I-0.000000 J-4.392083 F1000.000000
G03 X22.127986 Y110.257084 Z-0.125000 I3.105672 J-3.105672
G01 X22.127986 Y77.748612 Z-0.125000
G03 X23.613135 Y74.144182 Z-0.125000 I5.116517 J0.000000
G03 X27.199167 Y72.650973 Z-0.125000 I3.586032 J3.559429
G01 X82.541181 Y72.650973 Z-0.125000
G03 X86.482516 Y74.283527 Z-0.125000 I0.000000 J5.573889
G03 X88.115070 Y78.224862 Z-0.125000 I-3.941335 J3.941335
G01 X88.115070 Y110.292362 Z-0.125000
G03 X86.838991 Y113.373089 Z-0.125000 I-4.356806 J0.000000
G03 X83.758264 Y114.649167 Z-0.125000 I-3.080727 J-3.080727
G01 X26.520070 Y114.649167 Z-0.125000
G01 X26.520070 Y114.649167 Z-0.125000
G00 Z5.000000

(End cutting path id: path9053)


(Start cutting path id: path9049)
(Change tool to Cylindrical cutter)

G00 Z5.000000
G00 X130.924654 Y105.865001

G01 Z-0.125000 F1000.0(Penetrate)
G01 X130.924654 Y86.197639 Z-0.125000 F1000.000000
G01 X132.785556 Y86.197639 Z-0.125000
G01 X132.785556 Y105.865001 Z-0.125000
G01 X130.924654 Y105.865001 Z-0.125000
G01 X130.924654 Y105.865001 Z-0.125000
G00 Z5.000000

(End cutting path id: path9049)


(Start cutting path id: path9047)
(Change tool to Cylindrical cutter)

G00 Z5.000000
G00 X130.818820 Y105.970834

G01 Z-0.125000 F1000.0(Penetrate)
G01 X130.818820 Y86.091806 Z-0.125000 F1000.000000
G01 X132.891390 Y86.091806 Z-0.125000
G01 X132.891390 Y105.970834 Z-0.125000
G01 X130.818820 Y105.970834 Z-0.125000
G01 X130.818820 Y105.970834 Z-0.125000
G00 Z5.000000

(End cutting path id: path9047)


(Start cutting path id: path9045)
(Change tool to Cylindrical cutter)

G00 Z5.000000
G00 X129.222501 Y107.567153

G01 Z-0.125000 F1000.0(Penetrate)
G01 X129.222501 Y84.495487 Z-0.125000 F1000.000000
G01 X134.487709 Y84.495487 Z-0.125000
G01 X134.487709 Y107.567153 Z-0.125000
G01 X129.222501 Y107.567153 Z-0.125000
G01 X129.222501 Y107.567153 Z-0.125000
G00 Z5.000000

(End cutting path id: path9045)


(Start cutting path id: path9043)
(Change tool to Cylindrical cutter)

G00 Z5.000000
G00 X127.617362 Y109.172292

G01 Z-0.125000 F1000.0(Penetrate)
G01 X127.617362 Y82.890348 Z-0.125000 F1000.000000
G01 X136.092848 Y82.890348 Z-0.125000
G01 X136.092848 Y109.172292 Z-0.125000
G01 X127.617362 Y109.172292 Z-0.125000
G01 X127.617362 Y109.172292 Z-0.125000
G00 Z5.000000

(End cutting path id: path9043)


(Start cutting path id: path9041)
(Change tool to Cylindrical cutter)

G00 Z5.000000
G00 X126.021042 Y110.768612

G01 Z-0.125000 F1000.0(Penetrate)
G01 X126.021042 Y81.294028 Z-0.125000 F1000.000000
G01 X137.689167 Y81.294028 Z-0.125000
G01 X137.689167 Y110.768612 Z-0.125000
G01 X126.021042 Y110.768612 Z-0.125000
G01 X126.021042 Y110.768612 Z-0.125000
G00 Z5.000000

(End cutting path id: path9041)


(Start cutting path id: path9039)
(Change tool to Cylindrical cutter)

G00 Z5.000000
G00 X124.424723 Y112.364931

G01 Z-0.125000 F1000.0(Penetrate)
G01 X124.424723 Y79.697709 Z-0.125000 F1000.000000
G01 X139.285487 Y79.697709 Z-0.125000
G01 X139.285487 Y112.364931 Z-0.125000
G01 X124.424723 Y112.364931 Z-0.125000
G01 X124.424723 Y112.364931 Z-0.125000
G00 Z5.000000

(End cutting path id: path9039)


(Start cutting path id: path9037)
(Change tool to Cylindrical cutter)

G00 Z5.000000
G00 X122.819584 Y113.970070

G01 Z-0.125000 F1000.0(Penetrate)
G01 X122.819584 Y78.092570 Z-0.125000 F1000.000000
G01 X140.890626 Y78.092570 Z-0.125000
G01 X140.890626 Y113.970070 Z-0.125000
G01 X122.819584 Y113.970070 Z-0.125000
G01 X122.819584 Y113.970070 Z-0.125000
G00 Z5.000000

(End cutting path id: path9037)


(Start cutting path id: path9035)
(Change tool to Cylindrical cutter)

G00 Z5.000000
G00 X121.223265 Y115.566390

G01 Z-0.125000 F1000.0(Penetrate)
G01 X121.223265 Y76.496250 Z-0.125000 F1000.000000
G01 X142.486945 Y76.496250 Z-0.125000
G01 X142.486945 Y115.566390 Z-0.125000
G01 X121.223265 Y115.566390 Z-0.125000
G01 X121.223265 Y115.566390 Z-0.125000
G00 Z5.000000

(End cutting path id: path9035)


(Start cutting path id: path9033)
(Change tool to Cylindrical cutter)

G00 Z5.000000
G00 X119.618126 Y117.171528

G01 Z-0.125000 F1000.0(Penetrate)
G01 X119.618126 Y74.891112 Z-0.125000 F1000.000000
G01 X144.092084 Y74.891112 Z-0.125000
G01 X144.092084 Y117.171528 Z-0.125000
G01 X119.618126 Y117.171528 Z-0.125000
G01 X119.618126 Y117.171528 Z-0.125000
G00 Z5.000000

(End cutting path id: path9033)


(Start cutting path id: path9031)
(Change tool to Cylindrical cutter)

G00 Z5.000000
G00 X118.021806 Y118.767848

G01 Z-0.125000 F1000.0(Penetrate)
G01 X118.021806 Y73.294792 Z-0.125000 F1000.000000
G01 X145.688404 Y73.294792 Z-0.125000
G01 X145.688404 Y118.767848 Z-0.125000
G01 X118.021806 Y118.767848 Z-0.125000
G01 X118.021806 Y118.767848 Z-0.125000
G00 Z5.000000

(End cutting path id: path9031)


(Start cutting path id: path9029)
(Change tool to Cylindrical cutter)

G00 Z5.000000
G00 X116.416667 Y120.372987

G01 Z-0.125000 F1000.0(Penetrate)
G01 X116.416667 Y71.689653 Z-0.125000 F1000.000000
G01 X147.293543 Y71.689653 Z-0.125000
G01 X147.293543 Y120.372987 Z-0.125000
G01 X116.416667 Y120.372987 Z-0.125000
G01 X116.416667 Y120.372987 Z-0.125000
G00 Z5.000000

(End cutting path id: path9029)


(Start cutting path id: path9027)
(Change tool to Cylindrical cutter)

G00 Z5.000000
G00 X115.190765 Y121.969306

G01 Z-0.125000 F1000.0(Penetrate)
G03 X114.928840 Y121.860814 Z-0.125000 I0.000000 J-0.370417 F1000.000000
G03 X114.820348 Y121.598890 Z-0.125000 I0.261924 J-0.261924
G01 X114.820348 Y70.463750 Z-0.125000
G03 X114.928840 Y70.201826 Z-0.125000 I0.370417 J0.000000
G03 X115.190765 Y70.093334 Z-0.125000 I0.261924 J0.261924
G01 X148.519445 Y70.093334 Z-0.125000
G03 X148.781369 Y70.201826 Z-0.125000 I-0.000000 J0.370417
G03 X148.889862 Y70.463750 Z-0.125000 I-0.261924 J0.261924
G01 X148.889862 Y121.598890 Z-0.125000
G03 X148.781369 Y121.860814 Z-0.125000 I-0.370417 J0.000000
G03 X148.519445 Y121.969306 Z-0.125000 I-0.261924 J-0.261924
G01 X115.190765 Y121.969306 Z-0.125000
G01 X115.190765 Y121.969306 Z-0.125000
G00 Z5.000000

(End cutting path id: path9027)


(Start cutting path id: path9025)
(Change tool to Cylindrical cutter)

G00 Z5.000000
G00 X115.190765 Y123.565626

G01 Z-0.125000 F1000.0(Penetrate)
G03 X113.800072 Y122.989582 Z-0.125000 I0.000000 J-1.966736 F1000.000000
G03 X113.224028 Y121.598890 Z-0.125000 I1.390692 J-1.390692
G01 X113.224028 Y70.463750 Z-0.125000
G03 X113.800072 Y69.073058 Z-0.125000 I1.966736 J0.000000
G03 X115.190765 Y68.497014 Z-0.125000 I1.390692 J1.390692
G01 X148.519445 Y68.497014 Z-0.125000
G03 X149.910138 Y69.073058 Z-0.125000 I0.000000 J1.966736
G03 X150.486181 Y70.463750 Z-0.125000 I-1.390692 J1.390692
G01 X150.486181 Y121.598890 Z-0.125000
G03 X149.910138 Y122.989582 Z-0.125000 I-1.966736 J0.000000
G03 X148.519445 Y123.565626 Z-0.125000 I-1.390692 J-1.390692
G01 X115.190765 Y123.565626 Z-0.125000
G01 X115.190765 Y123.565626 Z-0.125000
G00 Z5.000000

(End cutting path id: path9025)


(Start cutting path id: path9023)
(Change tool to Cylindrical cutter)

G00 Z5.000000
G00 X115.190765 Y125.170765

G01 Z-0.125000 F1000.0(Penetrate)
G03 X112.665068 Y124.124587 Z-0.125000 I0.000000 J-3.571875 F1000.000000
G03 X111.618890 Y121.598890 Z-0.125000 I2.525697 J-2.525697
G01 X111.618890 Y70.463750 Z-0.125000
G03 X112.665068 Y67.938053 Z-0.125000 I3.571875 J0.000000
G03 X115.190765 Y66.891875 Z-0.125000 I2.525697 J2.525697
G01 X148.519445 Y66.891875 Z-0.125000
G03 X151.045142 Y67.938053 Z-0.125000 I0.000000 J3.571875
G03 X152.091320 Y70.463750 Z-0.125000 I-2.525697 J2.525697
G01 X152.091320 Y121.598890 Z-0.125000
G03 X151.045142 Y124.124587 Z-0.125000 I-3.571875 J-0.000000
G03 X148.519445 Y125.170765 Z-0.125000 I-2.525697 J-2.525697
G01 X115.190765 Y125.170765 Z-0.125000
G01 X115.190765 Y125.170765 Z-0.125000
G00 Z5.000000

(End cutting path id: path9023)


(Start cutting path id: path9021)
(Change tool to Cylindrical cutter)

G00 Z5.000000
G00 X115.190765 Y126.767084

G01 Z-0.125000 F1000.0(Penetrate)
G03 X111.536299 Y125.253355 Z-0.125000 I0.000000 J-5.168194 F1000.000000
G03 X110.022570 Y121.598890 Z-0.125000 I3.654465 J-3.654465
G01 X110.022570 Y70.463750 Z-0.125000
G03 X111.536299 Y66.809285 Z-0.125000 I5.168194 J0.000000
G03 X115.190765 Y65.295556 Z-0.125000 I3.654465 J3.654465
G01 X148.519445 Y65.295556 Z-0.125000
G03 X152.173911 Y66.809285 Z-0.125000 I0.000000 J5.168194
G03 X153.687640 Y70.463750 Z-0.125000 I-3.654465 J3.654465
G01 X153.687640 Y121.598890 Z-0.125000
G03 X152.173911 Y125.253355 Z-0.125000 I-5.168194 J0.000000
G03 X148.519445 Y126.767084 Z-0.125000 I-3.654465 J-3.654465
G01 X115.190765 Y126.767084 Z-0.125000
G01 X115.190765 Y126.767084 Z-0.125000
G00 Z5.000000

(End cutting path id: path9021)


(Start cutting path id: path9019)
(Change tool to Cylindrical cutter)

G00 Z5.000000
G00 X115.190765 Y128.372223

G01 Z-0.125000 F1000.0(Penetrate)
G03 X110.401295 Y126.388360 Z-0.125000 I0.000000 J-6.773333 F1000.000000
G03 X108.417431 Y121.598890 Z-0.125000 I4.789470 J-4.789470
G01 X108.417431 Y70.463750 Z-0.125000
G03 X110.401295 Y65.674280 Z-0.125000 I6.773333 J0.000000
G03 X115.190765 Y63.690417 Z-0.125000 I4.789470 J4.789470
G01 X148.519445 Y63.690417 Z-0.125000
G03 X153.308915 Y65.674280 Z-0.125000 I-0.000000 J6.773333
G03 X155.292779 Y70.463750 Z-0.125000 I-4.789470 J4.789470
G01 X155.292779 Y121.598890 Z-0.125000
G03 X153.308915 Y126.388360 Z-0.125000 I-6.773333 J0.000000
G03 X148.519445 Y128.372223 Z-0.125000 I-4.789470 J-4.789470
G01 X115.190765 Y128.372223 Z-0.125000
G01 X115.190765 Y128.372223 Z-0.125000
G00 Z5.000000

(End cutting path id: path9019)


(Footer)
M5
G00 X0.0000 Y0.0000
M2
(Using default footer. To add your own footer create file "footer" in the output dir.)
(end)
%